( Made using CamBam - http://www.cambam.co.uk )
( AIR_LCD_318housing_backonly2.dxf 9/8/2017 10:23:25 AM )
( T3 : 0.125 )
G20 G90 G64 G40
G0 Z0.25
( T3 : 0.125 )
T3 M6
( perimeter )
G17
M3 S1000
G0 X4.1698 Y0.6929
G0 Z0.0625
G1 F30.0 Z-0.1
G1 Y4.0929
G3 X4.1073 Y4.1554 I-0.0625 J0.0
G1 X0.7073
G3 X0.6448 Y4.0929 I0.0 J-0.0625
G1 Y0.6929
G3 X0.7073 Y0.6304 I0.0625 J0.0
G1 X4.1073
G3 X4.1698 Y0.6929 I0.0 J0.0625
( Drill1 )
S1000
G0 Z0.5
G0 X1.1698 Y3.6304
G98
G81 X1.1698 Y3.6304 Z-0.125 R0.0 F30.0
G80
( Drill2 )
S1000
G0 Z0.5
G0 X3.6448
G98
G81 X3.6448 Y3.6304 Z-0.125 R0.0 F30.0
G80
( Drill3 )
S1000
G0 Z0.5
G0 Y1.1554
G98
G81 X3.6448 Y1.1554 Z-0.125 R0.0 F30.0
G80
( Drill4 )
S1000
G0 Z0.5
G0 X1.1698
G98
G81 X1.1698 Y1.1554 Z-0.125 R0.0 F30.0
G80
( Pocket1 )
S1000
G0 Z0.4
G0 X2.4211 Y2.3868
G0 Z0.0625
G1 F30.0 Z-0.1
G1 Y2.3466
G1 X2.3935
G1 Y2.3868
G1 X2.4211
G1 Y2.4181
G1 X2.4524
G1 Y2.3154
G1 X2.3623
G1 Y2.4181
G1 X2.4211
G1 Y2.4806
G1 X2.5149
G1 Y2.2529
G1 X2.2998
G1 Y2.4806
G1 X2.4211
G1 Y2.5431
G1 X2.5774
G1 Y2.1904
G1 X2.2373
G1 Y2.5431
G1 X2.4211
G1 Y2.6056
G1 X2.6399
G1 Y2.1279
G1 X2.1748
G1 Y2.6055
G1 X2.4211 Y2.6056
G1 Y2.6681
G1 X2.7024
G1 Y2.0654
G1 X2.1123
G1 Y2.668
G1 X2.4211 Y2.6681
G1 X2.421 Y2.7306
G1 X2.7649
G1 Y2.0029
G1 X2.0498
G1 Y2.7305
G1 X2.421 Y2.7306
G1 Y2.7931
G1 X2.8274 Y2.7932
G1 Y1.9404
G1 X1.9873
G1 Y2.793
G1 X2.421 Y2.7931
G1 Y2.8556
G1 X2.8899 Y2.8557
G1 Y1.8779
G1 X1.9248
G1 Y2.8555
G1 X2.421 Y2.8556
G1 Y2.9181
G1 X2.9524 Y2.9182
G1 Y1.8154
G1 X1.8623
G1 Y2.918
G1 X2.421 Y2.9181
G1 Y2.9806
G1 X3.0149 Y2.9807
G1 Y1.7529
G1 X1.7998
G1 Y2.9805
G1 X2.421 Y2.9806
G1 Y3.0431
G1 X3.0774 Y3.0432
G1 Y1.6904
G1 X1.7373
G1 Y3.043
G1 X2.421 Y3.0431
G1 Y3.1056
G1 X3.1399 Y3.1057
G1 Y1.6279
G1 X1.6748
G1 Y3.1055
G1 X2.421 Y3.1056
G1 Y3.1681
G1 X3.2024 Y3.1682
G1 Y1.5654
G1 X1.6123
G1 Y3.1679
G1 X2.421 Y3.1681
G1 Y3.2306
G1 X3.2649 Y3.2307
G1 Y1.5029
G1 X1.5498
G1 Y3.2304
G1 X2.421 Y3.2306
G1 X2.4209 Y3.2931
G1 X3.3274 Y3.2932
G1 Y1.4404
G1 X1.4873
G1 Y3.2929
G1 X2.4209 Y3.2931
G1 Y3.3556
G1 X3.3899 Y3.3557
G1 Y1.3779
G1 X1.4248
G1 Y3.3554
G1 X2.4209 Y3.3556
G1 Y3.4181
G1 X3.4524 Y3.4183
G1 Y1.3154
G1 X1.3623
G1 Y3.4179
G1 X2.4209 Y3.4181
G1 Y3.4806
G1 X3.5149 Y3.4808
G1 Y1.2529
G1 X1.2998
G1 Y3.4804
G1 X2.4209 Y3.4806
G0 Z0.4
G0 X2.4211 Y2.3868
G0 Z-0.0375
G1 Z-0.2
G1 Y2.3466
G1 X2.3935
G1 Y2.3868
G1 X2.4211
G1 Y2.4181
G1 X2.4524
G1 Y2.3154
G1 X2.3623
G1 Y2.4181
G1 X2.4211
G1 Y2.4806
G1 X2.5149
G1 Y2.2529
G1 X2.2998
G1 Y2.4806
G1 X2.4211
G1 Y2.5431
G1 X2.5774
G1 Y2.1904
G1 X2.2373
G1 Y2.5431
G1 X2.4211
G1 Y2.6056
G1 X2.6399
G1 Y2.1279
G1 X2.1748
G1 Y2.6055
G1 X2.4211 Y2.6056
G1 Y2.6681
G1 X2.7024
G1 Y2.0654
G1 X2.1123
G1 Y2.668
G1 X2.4211 Y2.6681
G1 X2.421 Y2.7306
G1 X2.7649
G1 Y2.0029
G1 X2.0498
G1 Y2.7305
G1 X2.421 Y2.7306
G1 Y2.7931
G1 X2.8274 Y2.7932
G1 Y1.9404
G1 X1.9873
G1 Y2.793
G1 X2.421 Y2.7931
G1 Y2.8556
G1 X2.8899 Y2.8557
G1 Y1.8779
G1 X1.9248
G1 Y2.8555
G1 X2.421 Y2.8556
G1 Y2.9181
G1 X2.9524 Y2.9182
G1 Y1.8154
G1 X1.8623
G1 Y2.918
G1 X2.421 Y2.9181
G1 Y2.9806
G1 X3.0149 Y2.9807
G1 Y1.7529
G1 X1.7998
G1 Y2.9805
G1 X2.421 Y2.9806
G1 Y3.0431
G1 X3.0774 Y3.0432
G1 Y1.6904
G1 X1.7373
G1 Y3.043
G1 X2.421 Y3.0431
G1 Y3.1056
G1 X3.1399 Y3.1057
G1 Y1.6279
G1 X1.6748
G1 Y3.1055
G1 X2.421 Y3.1056
G1 Y3.1681
G1 X3.2024 Y3.1682
G1 Y1.5654
G1 X1.6123
G1 Y3.1679
G1 X2.421 Y3.1681
G1 Y3.2306
G1 X3.2649 Y3.2307
G1 Y1.5029
G1 X1.5498
G1 Y3.2304
G1 X2.421 Y3.2306
G1 X2.4209 Y3.2931
G1 X3.3274 Y3.2932
G1 Y1.4404
G1 X1.4873
G1 Y3.2929
G1 X2.4209 Y3.2931
G1 Y3.3556
G1 X3.3899 Y3.3557
G1 Y1.3779
G1 X1.4248
G1 Y3.3554
G1 X2.4209 Y3.3556
G1 Y3.4181
G1 X3.4524 Y3.4183
G1 Y1.3154
G1 X1.3623
G1 Y3.4179
G1 X2.4209 Y3.4181
G1 Y3.4806
G1 X3.5149 Y3.4808
G1 Y1.2529
G1 X1.2998
G1 Y3.4804
G1 X2.4209 Y3.4806
G0 Z0.4
G0 X2.4211 Y2.3868
G0 Z-0.1375
G1 Z-0.3
G1 Y2.3466
G1 X2.3935
G1 Y2.3868
G1 X2.4211
G1 Y2.4181
G1 X2.4524
G1 Y2.3154
G1 X2.3623
G1 Y2.4181
G1 X2.4211
G1 Y2.4806
G1 X2.5149
G1 Y2.2529
G1 X2.2998
G1 Y2.4806
G1 X2.4211
G1 Y2.5431
G1 X2.5774
G1 Y2.1904
G1 X2.2373
G1 Y2.5431
G1 X2.4211
G1 Y2.6056
G1 X2.6399
G1 Y2.1279
G1 X2.1748
G1 Y2.6055
G1 X2.4211 Y2.6056
G1 Y2.6681
G1 X2.7024
G1 Y2.0654
G1 X2.1123
G1 Y2.668
G1 X2.4211 Y2.6681
G1 X2.421 Y2.7306
G1 X2.7649
G1 Y2.0029
G1 X2.0498
G1 Y2.7305
G1 X2.421 Y2.7306
G1 Y2.7931
G1 X2.8274 Y2.7932
G1 Y1.9404
G1 X1.9873
G1 Y2.793
G1 X2.421 Y2.7931
G1 Y2.8556
G1 X2.8899 Y2.8557
G1 Y1.8779
G1 X1.9248
G1 Y2.8555
G1 X2.421 Y2.8556
G1 Y2.9181
G1 X2.9524 Y2.9182
G1 Y1.8154
G1 X1.8623
G1 Y2.918
G1 X2.421 Y2.9181
G1 Y2.9806
G1 X3.0149 Y2.9807
G1 Y1.7529
G1 X1.7998
G1 Y2.9805
G1 X2.421 Y2.9806
G1 Y3.0431
G1 X3.0774 Y3.0432
G1 Y1.6904
G1 X1.7373
G1 Y3.043
G1 X2.421 Y3.0431
G1 Y3.1056
G1 X3.1399 Y3.1057
G1 Y1.6279
G1 X1.6748
G1 Y3.1055
G1 X2.421 Y3.1056
G1 Y3.1681
G1 X3.2024 Y3.1682
G1 Y1.5654
G1 X1.6123
G1 Y3.1679
G1 X2.421 Y3.1681
G1 Y3.2306
G1 X3.2649 Y3.2307
G1 Y1.5029
G1 X1.5498
G1 Y3.2304
G1 X2.421 Y3.2306
G1 X2.4209 Y3.2931
G1 X3.3274 Y3.2932
G1 Y1.4404
G1 X1.4873
G1 Y3.2929
G1 X2.4209 Y3.2931
G1 Y3.3556
G1 X3.3899 Y3.3557
G1 Y1.3779
G1 X1.4248
G1 Y3.3554
G1 X2.4209 Y3.3556
G1 Y3.4181
G1 X3.4524 Y3.4183
G1 Y1.3154
G1 X1.3623
G1 Y3.4179
G1 X2.4209 Y3.4181
G1 Y3.4806
G1 X3.5149 Y3.4808
G1 Y1.2529
G1 X1.2998
G1 Y3.4804
G1 X2.4209 Y3.4806
G0 Z0.4
G0 X2.4211 Y2.3868
G0 Z-0.2375
G1 Z-0.31
G1 Y2.3466
G1 X2.3935
G1 Y2.3868
G1 X2.4211
G1 Y2.4181
G1 X2.4524
G1 Y2.3154
G1 X2.3623
G1 Y2.4181
G1 X2.4211
G1 Y2.4806
G1 X2.5149
G1 Y2.2529
G1 X2.2998
G1 Y2.4806
G1 X2.4211
G1 Y2.5431
G1 X2.5774
G1 Y2.1904
G1 X2.2373
G1 Y2.5431
G1 X2.4211
G1 Y2.6056
G1 X2.6399
G1 Y2.1279
G1 X2.1748
G1 Y2.6055
G1 X2.4211 Y2.6056
G1 Y2.6681
G1 X2.7024
G1 Y2.0654
G1 X2.1123
G1 Y2.668
G1 X2.4211 Y2.6681
G1 X2.421 Y2.7306
G1 X2.7649
G1 Y2.0029
G1 X2.0498
G1 Y2.7305
G1 X2.421 Y2.7306
G1 Y2.7931
G1 X2.8274 Y2.7932
G1 Y1.9404
G1 X1.9873
G1 Y2.793
G1 X2.421 Y2.7931
G1 Y2.8556
G1 X2.8899 Y2.8557
G1 Y1.8779
G1 X1.9248
G1 Y2.8555
G1 X2.421 Y2.8556
G1 Y2.9181
G1 X2.9524 Y2.9182
G1 Y1.8154
G1 X1.8623
G1 Y2.918
G1 X2.421 Y2.9181
G1 Y2.9806
G1 X3.0149 Y2.9807
G1 Y1.7529
G1 X1.7998
G1 Y2.9805
G1 X2.421 Y2.9806
G1 Y3.0431
G1 X3.0774 Y3.0432
G1 Y1.6904
G1 X1.7373
G1 Y3.043
G1 X2.421 Y3.0431
G1 Y3.1056
G1 X3.1399 Y3.1057
G1 Y1.6279
G1 X1.6748
G1 Y3.1055
G1 X2.421 Y3.1056
G1 Y3.1681
G1 X3.2024 Y3.1682
G1 Y1.5654
G1 X1.6123
G1 Y3.1679
G1 X2.421 Y3.1681
G1 Y3.2306
G1 X3.2649 Y3.2307
G1 Y1.5029
G1 X1.5498
G1 Y3.2304
G1 X2.421 Y3.2306
G1 X2.4209 Y3.2931
G1 X3.3274 Y3.2932
G1 Y1.4404
G1 X1.4873
G1 Y3.2929
G1 X2.4209 Y3.2931
G1 Y3.3556
G1 X3.3899 Y3.3557
G1 Y1.3779
G1 X1.4248
G1 Y3.3554
G1 X2.4209 Y3.3556
G1 Y3.4181
G1 X3.4524 Y3.4183
G1 Y1.3154
G1 X1.3623
G1 Y3.4179
G1 X2.4209 Y3.4181
G1 Y3.4806
G1 X3.5149 Y3.4808
G1 Y1.2529
G1 X1.2998
G1 Y3.4804
G1 X2.4209 Y3.4806
( Pocket2 )
S1000
G0 Z0.125
G0 X2.5104 Y2.6044
G0 Z-0.2475
G1 Z-0.41
G3 X2.4087 Y2.2279 I0.8344 J-0.4275
G1 X2.4035
G3 X2.3815 Y2.3614 I-0.9337 J-0.0846
G3 X2.4839 Y2.6044 I-0.8042 J0.4818
G1 X2.5104
G1 X2.566 Y2.5759
G3 X2.4698 Y2.1769 I0.7787 J-0.399
G1 Y2.1654
G1 X2.3445
G3 X2.3144 Y2.3717 I-0.8747 J-0.0221
G3 X2.4344 Y2.6669 I-0.7371 J0.4715
G1 X2.6199
G3 X2.566 Y2.5759 I0.7249 J-0.49
G1 X2.6217 Y2.5474
G3 X2.5323 Y2.1769 I0.7231 J-0.3705
G1 Y2.1029
G1 X2.2823
G1 Y2.1433
G3 X2.2464 Y2.3822 I-0.8125 J0.0
G3 X2.3818 Y2.7294 I-0.669 J0.4611
G1 X2.749
G3 X2.6217 Y2.5474 I0.5957 J-0.5525
G1 X2.6773 Y2.5189
G3 X2.5948 Y2.1769 I0.6675 J-0.342
G1 Y2.0404
G1 X2.2198
G1 Y2.1433
G3 X2.177 Y2.3929 I-0.75 J0.0
G3 X2.3256 Y2.7919 I-0.5997 J0.4504
G1 X2.8274
G1 Y2.7199
G3 X2.6773 Y2.5189 I0.5174 J-0.5429
G1 X2.7329 Y2.4904
G3 X2.6573 Y2.1769 I0.6119 J-0.3135
G1 Y1.9779
G1 X2.1573
G1 Y2.1433
G3 X2.106 Y2.4038 I-0.6875 J0.0
G3 X2.2649 Y2.8433 I-0.5287 J0.4395
G1 Y2.8544
G1 X2.8899
G1 Y2.6924
G3 X2.7329 Y2.4904 I0.4549 J-0.5155
G1 X2.7885 Y2.4619
G3 X2.7198 Y2.1769 I0.5562 J-0.285
G1 Y1.9467
G3 X2.6964 Y1.9154 I0.625 J-0.4913
G1 X2.1181
G3 X2.0948 Y1.9465 I-0.6483 J-0.46
G1 Y2.1433
G3 X2.0326 Y2.4151 I-0.625 J0.0
G3 X2.2024 Y2.8433 I-0.4552 J0.4282
G1 Y2.9169
G1 X2.9524
G1 Y2.6634
G3 X2.7885 Y2.4619 I0.3924 J-0.4864
G1 X2.8442 Y2.4334
G3 X2.7823 Y2.1769 I0.5006 J-0.2565
G1 Y1.9246
G3 X2.7295 Y1.8529 I0.5625 J-0.4692
G1 X2.0849
G3 X2.0323 Y1.9244 I-0.6151 J-0.3975
G1 Y2.1433
G3 X1.9555 Y2.4269 I-0.5625 J0.0
G3 X2.1399 Y2.8433 I-0.3782 J0.4164
G1 Y2.9794
G1 X3.0149
G1 Y2.6325
G3 X2.8442 Y2.4334 I0.3299 J-0.4556
G1 X2.8998 Y2.4049
G3 X2.8448 Y2.1769 I0.445 J-0.228
G1 Y1.9014
G3 X2.7645 Y1.7904 I0.5 J-0.446
G1 X2.0499
G3 X1.9698 Y1.9012 I-0.5801 J-0.335
G1 Y2.1433
G3 X1.8823 Y2.4258 I-0.5 J0.0
G1 Y2.447
G3 X2.0774 Y2.8433 I-0.3049 J0.3963
G1 Y3.0419
G1 X3.0774
G1 Y2.5994
G3 X2.8998 Y2.4049 I0.2674 J-0.4225
G1 X2.9554 Y2.3764
G3 X2.9073 Y2.1769 I0.3894 J-0.1995
G1 Y1.8769
G3 X2.8018 Y1.7279 I0.4375 J-0.4215
G1 X2.0126
G3 X1.9073 Y1.8767 I-0.5428 J-0.2725
G1 Y2.1433
G3 X1.8198 Y2.4058 I-0.4375 J0.0
G1 Y2.4791
G3 X2.0149 Y2.8433 I-0.2424 J0.3642
G1 Y3.1044
G1 X3.1399
G1 Y2.5635
G3 X2.9554 Y2.3764 I0.2049 J-0.3865
G1 X3.011 Y2.3479
G3 X2.9698 Y2.1769 I0.3337 J-0.171
G1 Y1.8509
G3 X2.8419 Y1.6654 I0.375 J-0.3955
G1 X1.9726
G3 X1.8448 Y1.8507 I-0.5028 J-0.21
G1 Y2.1433
G3 X1.7573 Y2.384 I-0.375 J0.0
G1 Y2.5143
G3 X1.9524 Y2.8433 I-0.1799 J0.329
G1 Y3.1669
G1 X3.2024
G1 Y2.5238
G3 X3.011 Y2.3479 I0.1424 J-0.3469
G1 X3.0667 Y2.3194
G3 X3.0323 Y2.1769 I0.2781 J-0.1425
G1 Y1.823
G3 X2.8854 Y1.6029 I0.3125 J-0.3676
G1 X1.9291
G3 X1.7823 Y1.8229 I-0.4593 J-0.1475
G1 Y2.1433
G3 X1.6948 Y2.3601 I-0.3125 J0.0
G1 Y2.5537
G3 X1.8899 Y2.8433 I-0.1174 J0.2896
G1 Y3.2294
G1 X3.2649
G1 Y2.4791
G3 X3.0667 Y2.3194 I0.0799 J-0.3021
G1 X3.1223 Y2.2909
G3 X3.0948 Y2.1769 I0.2225 J-0.114
G1 Y1.7929
G3 X2.9335 Y1.5404 I0.25 J-0.3375
G1 X1.881
G3 X1.7198 Y1.7927 I-0.4112 J-0.085
G1 Y2.1433
G3 X1.6323 Y2.3333 I-0.25 J0.0
G1 Y2.5994
G3 X1.8274 Y2.8433 I-0.0549 J0.2439
G1 Y3.2919
G1 X3.3274
G1 Y2.4263
G3 X3.1223 Y2.2909 I0.0174 J-0.2494
G1 X3.1779 Y2.2624
G3 X3.1573 Y2.1769 I0.1669 J-0.0855
G1 Y1.7598
G3 X2.988 Y1.4779 I0.1875 J-0.3044
G1 X1.8265
G3 X1.6573 Y1.7596 I-0.3567 J-0.0225
G1 Y2.1433
G3 X1.5698 Y2.3019 I-0.1875 J0.0
G1 Y2.6558
G1 X1.5774
G3 X1.7649 Y2.8433 I0.0 J0.1875
G1 Y3.3544
G1 X3.3899
G1 Y2.3644
G1 X3.3448
G3 X3.1779 Y2.2624 I0.0 J-0.1875
G1 X3.2335 Y2.2339
G3 X3.2198 Y2.1769 I0.1112 J-0.057
G1 Y1.7226
G3 X3.0498 Y1.4554 I0.125 J-0.2672
G1 Y1.4154
G1 X1.7647
G1 Y1.4554
G3 X1.5948 Y1.7225 I-0.2949 J0.0
G1 Y2.1433
G3 X1.5073 Y2.2625 I-0.125 J0.0
G1 Y2.7183
G1 X1.5774
G3 X1.7024 Y2.8433 I0.0 J0.125
G1 Y3.4169
G1 X3.4524
G1 Y2.3019
G1 X3.3448
G3 X3.2335 Y2.2339 I0.0 J-0.125
G1 X3.2892 Y2.2054
G3 X3.2823 Y2.1769 I0.0556 J-0.0285
G1 Y1.6793
G3 X3.1123 Y1.4554 I0.0625 J-0.2239
G1 Y1.3529
G1 X1.7022
G1 Y1.4554
G3 X1.5323 Y1.6792 I-0.2324 J0.0
G1 Y2.1433
G3 X1.4698 Y2.2058 I-0.0625 J0.0
G1 X1.4448
G1 Y2.7808
G1 X1.5774
G3 X1.6399 Y2.8433 I0.0 J0.0625
G1 Y3.4794
G1 X3.5149
G1 Y2.2394
G1 X3.3448
G3 X3.2892 Y2.2054 I0.0 J-0.0625
G0 Z0.125
G0 X2.5104 Y2.6044
G0 Z-0.3475
G1 Z-0.51
G3 X2.4087 Y2.2279 I0.8344 J-0.4275
G1 X2.4035
G3 X2.3815 Y2.3614 I-0.9337 J-0.0846
G3 X2.4839 Y2.6044 I-0.8042 J0.4818
G1 X2.5104
G1 X2.566 Y2.5759
G3 X2.4698 Y2.1769 I0.7787 J-0.399
G1 Y2.1654
G1 X2.3445
G3 X2.3144 Y2.3717 I-0.8747 J-0.0221
G3 X2.4344 Y2.6669 I-0.7371 J0.4715
G1 X2.6199
G3 X2.566 Y2.5759 I0.7249 J-0.49
G1 X2.6217 Y2.5474
G3 X2.5323 Y2.1769 I0.7231 J-0.3705
G1 Y2.1029
G1 X2.2823
G1 Y2.1433
G3 X2.2464 Y2.3822 I-0.8125 J0.0
G3 X2.3818 Y2.7294 I-0.669 J0.4611
G1 X2.749
G3 X2.6217 Y2.5474 I0.5957 J-0.5525
G1 X2.6773 Y2.5189
G3 X2.5948 Y2.1769 I0.6675 J-0.342
G1 Y2.0404
G1 X2.2198
G1 Y2.1433
G3 X2.177 Y2.3929 I-0.75 J0.0
G3 X2.3256 Y2.7919 I-0.5997 J0.4504
G1 X2.8274
G1 Y2.7199
G3 X2.6773 Y2.5189 I0.5174 J-0.5429
G1 X2.7329 Y2.4904
G3 X2.6573 Y2.1769 I0.6119 J-0.3135
G1 Y1.9779
G1 X2.1573
G1 Y2.1433
G3 X2.106 Y2.4038 I-0.6875 J0.0
G3 X2.2649 Y2.8433 I-0.5287 J0.4395
G1 Y2.8544
G1 X2.8899
G1 Y2.6924
G3 X2.7329 Y2.4904 I0.4549 J-0.5155
G1 X2.7885 Y2.4619
G3 X2.7198 Y2.1769 I0.5562 J-0.285
G1 Y1.9467
G3 X2.6964 Y1.9154 I0.625 J-0.4913
G1 X2.1181
G3 X2.0948 Y1.9465 I-0.6483 J-0.46
G1 Y2.1433
G3 X2.0326 Y2.4151 I-0.625 J0.0
G3 X2.2024 Y2.8433 I-0.4552 J0.4282
G1 Y2.9169
G1 X2.9524
G1 Y2.6634
G3 X2.7885 Y2.4619 I0.3924 J-0.4864
G1 X2.8442 Y2.4334
G3 X2.7823 Y2.1769 I0.5006 J-0.2565
G1 Y1.9246
G3 X2.7295 Y1.8529 I0.5625 J-0.4692
G1 X2.0849
G3 X2.0323 Y1.9244 I-0.6151 J-0.3975
G1 Y2.1433
G3 X1.9555 Y2.4269 I-0.5625 J0.0
G3 X2.1399 Y2.8433 I-0.3782 J0.4164
G1 Y2.9794
G1 X3.0149
G1 Y2.6325
G3 X2.8442 Y2.4334 I0.3299 J-0.4556
G1 X2.8998 Y2.4049
G3 X2.8448 Y2.1769 I0.445 J-0.228
G1 Y1.9014
G3 X2.7645 Y1.7904 I0.5 J-0.446
G1 X2.0499
G3 X1.9698 Y1.9012 I-0.5801 J-0.335
G1 Y2.1433
G3 X1.8823 Y2.4258 I-0.5 J0.0
G1 Y2.447
G3 X2.0774 Y2.8433 I-0.3049 J0.3963
G1 Y3.0419
G1 X3.0774
G1 Y2.5994
G3 X2.8998 Y2.4049 I0.2674 J-0.4225
G1 X2.9554 Y2.3764
G3 X2.9073 Y2.1769 I0.3894 J-0.1995
G1 Y1.8769
G3 X2.8018 Y1.7279 I0.4375 J-0.4215
G1 X2.0126
G3 X1.9073 Y1.8767 I-0.5428 J-0.2725
G1 Y2.1433
G3 X1.8198 Y2.4058 I-0.4375 J0.0
G1 Y2.4791
G3 X2.0149 Y2.8433 I-0.2424 J0.3642
G1 Y3.1044
G1 X3.1399
G1 Y2.5635
G3 X2.9554 Y2.3764 I0.2049 J-0.3865
G1 X3.011 Y2.3479
G3 X2.9698 Y2.1769 I0.3337 J-0.171
G1 Y1.8509
G3 X2.8419 Y1.6654 I0.375 J-0.3955
G1 X1.9726
G3 X1.8448 Y1.8507 I-0.5028 J-0.21
G1 Y2.1433
G3 X1.7573 Y2.384 I-0.375 J0.0
G1 Y2.5143
G3 X1.9524 Y2.8433 I-0.1799 J0.329
G1 Y3.1669
G1 X3.2024
G1 Y2.5238
G3 X3.011 Y2.3479 I0.1424 J-0.3469
G1 X3.0667 Y2.3194
G3 X3.0323 Y2.1769 I0.2781 J-0.1425
G1 Y1.823
G3 X2.8854 Y1.6029 I0.3125 J-0.3676
G1 X1.9291
G3 X1.7823 Y1.8229 I-0.4593 J-0.1475
G1 Y2.1433
G3 X1.6948 Y2.3601 I-0.3125 J0.0
G1 Y2.5537
G3 X1.8899 Y2.8433 I-0.1174 J0.2896
G1 Y3.2294
G1 X3.2649
G1 Y2.4791
G3 X3.0667 Y2.3194 I0.0799 J-0.3021
G1 X3.1223 Y2.2909
G3 X3.0948 Y2.1769 I0.2225 J-0.114
G1 Y1.7929
G3 X2.9335 Y1.5404 I0.25 J-0.3375
G1 X1.881
G3 X1.7198 Y1.7927 I-0.4112 J-0.085
G1 Y2.1433
G3 X1.6323 Y2.3333 I-0.25 J0.0
G1 Y2.5994
G3 X1.8274 Y2.8433 I-0.0549 J0.2439
G1 Y3.2919
G1 X3.3274
G1 Y2.4263
G3 X3.1223 Y2.2909 I0.0174 J-0.2494
G1 X3.1779 Y2.2624
G3 X3.1573 Y2.1769 I0.1669 J-0.0855
G1 Y1.7598
G3 X2.988 Y1.4779 I0.1875 J-0.3044
G1 X1.8265
G3 X1.6573 Y1.7596 I-0.3567 J-0.0225
G1 Y2.1433
G3 X1.5698 Y2.3019 I-0.1875 J0.0
G1 Y2.6558
G1 X1.5774
G3 X1.7649 Y2.8433 I0.0 J0.1875
G1 Y3.3544
G1 X3.3899
G1 Y2.3644
G1 X3.3448
G3 X3.1779 Y2.2624 I0.0 J-0.1875
G1 X3.2335 Y2.2339
G3 X3.2198 Y2.1769 I0.1112 J-0.057
G1 Y1.7226
G3 X3.0498 Y1.4554 I0.125 J-0.2672
G1 Y1.4154
G1 X1.7647
G1 Y1.4554
G3 X1.5948 Y1.7225 I-0.2949 J0.0
G1 Y2.1433
G3 X1.5073 Y2.2625 I-0.125 J0.0
G1 Y2.7183
G1 X1.5774
G3 X1.7024 Y2.8433 I0.0 J0.125
G1 Y3.4169
G1 X3.4524
G1 Y2.3019
G1 X3.3448
G3 X3.2335 Y2.2339 I0.0 J-0.125
G1 X3.2892 Y2.2054
G3 X3.2823 Y2.1769 I0.0556 J-0.0285
G1 Y1.6793
G3 X3.1123 Y1.4554 I0.0625 J-0.2239
G1 Y1.3529
G1 X1.7022
G1 Y1.4554
G3 X1.5323 Y1.6792 I-0.2324 J0.0
G1 Y2.1433
G3 X1.4698 Y2.2058 I-0.0625 J0.0
G1 X1.4448
G1 Y2.7808
G1 X1.5774
G3 X1.6399 Y2.8433 I0.0 J0.0625
G1 Y3.4794
G1 X3.5149
G1 Y2.2394
G1 X3.3448
G3 X3.2892 Y2.2054 I0.0 J-0.0625
G0 Z0.125
G0 X2.5104 Y2.6044
G0 Z-0.4475
G1 Z-0.61
G3 X2.4087 Y2.2279 I0.8344 J-0.4275
G1 X2.4035
G3 X2.3815 Y2.3614 I-0.9337 J-0.0846
G3 X2.4839 Y2.6044 I-0.8042 J0.4818
G1 X2.5104
G1 X2.566 Y2.5759
G3 X2.4698 Y2.1769 I0.7787 J-0.399
G1 Y2.1654
G1 X2.3445
G3 X2.3144 Y2.3717 I-0.8747 J-0.0221
G3 X2.4344 Y2.6669 I-0.7371 J0.4715
G1 X2.6199
G3 X2.566 Y2.5759 I0.7249 J-0.49
G1 X2.6217 Y2.5474
G3 X2.5323 Y2.1769 I0.7231 J-0.3705
G1 Y2.1029
G1 X2.2823
G1 Y2.1433
G3 X2.2464 Y2.3822 I-0.8125 J0.0
G3 X2.3818 Y2.7294 I-0.669 J0.4611
G1 X2.749
G3 X2.6217 Y2.5474 I0.5957 J-0.5525
G1 X2.6773 Y2.5189
G3 X2.5948 Y2.1769 I0.6675 J-0.342
G1 Y2.0404
G1 X2.2198
G1 Y2.1433
G3 X2.177 Y2.3929 I-0.75 J0.0
G3 X2.3256 Y2.7919 I-0.5997 J0.4504
G1 X2.8274
G1 Y2.7199
G3 X2.6773 Y2.5189 I0.5174 J-0.5429
G1 X2.7329 Y2.4904
G3 X2.6573 Y2.1769 I0.6119 J-0.3135
G1 Y1.9779
G1 X2.1573
G1 Y2.1433
G3 X2.106 Y2.4038 I-0.6875 J0.0
G3 X2.2649 Y2.8433 I-0.5287 J0.4395
G1 Y2.8544
G1 X2.8899
G1 Y2.6924
G3 X2.7329 Y2.4904 I0.4549 J-0.5155
G1 X2.7885 Y2.4619
G3 X2.7198 Y2.1769 I0.5562 J-0.285
G1 Y1.9467
G3 X2.6964 Y1.9154 I0.625 J-0.4913
G1 X2.1181
G3 X2.0948 Y1.9465 I-0.6483 J-0.46
G1 Y2.1433
G3 X2.0326 Y2.4151 I-0.625 J0.0
G3 X2.2024 Y2.8433 I-0.4552 J0.4282
G1 Y2.9169
G1 X2.9524
G1 Y2.6634
G3 X2.7885 Y2.4619 I0.3924 J-0.4864
G1 X2.8442 Y2.4334
G3 X2.7823 Y2.1769 I0.5006 J-0.2565
G1 Y1.9246
G3 X2.7295 Y1.8529 I0.5625 J-0.4692
G1 X2.0849
G3 X2.0323 Y1.9244 I-0.6151 J-0.3975
G1 Y2.1433
G3 X1.9555 Y2.4269 I-0.5625 J0.0
G3 X2.1399 Y2.8433 I-0.3782 J0.4164
G1 Y2.9794
G1 X3.0149
G1 Y2.6325
G3 X2.8442 Y2.4334 I0.3299 J-0.4556
G1 X2.8998 Y2.4049
G3 X2.8448 Y2.1769 I0.445 J-0.228
G1 Y1.9014
G3 X2.7645 Y1.7904 I0.5 J-0.446
G1 X2.0499
G3 X1.9698 Y1.9012 I-0.5801 J-0.335
G1 Y2.1433
G3 X1.8823 Y2.4258 I-0.5 J0.0
G1 Y2.447
G3 X2.0774 Y2.8433 I-0.3049 J0.3963
G1 Y3.0419
G1 X3.0774
G1 Y2.5994
G3 X2.8998 Y2.4049 I0.2674 J-0.4225
G1 X2.9554 Y2.3764
G3 X2.9073 Y2.1769 I0.3894 J-0.1995
G1 Y1.8769
G3 X2.8018 Y1.7279 I0.4375 J-0.4215
G1 X2.0126
G3 X1.9073 Y1.8767 I-0.5428 J-0.2725
G1 Y2.1433
G3 X1.8198 Y2.4058 I-0.4375 J0.0
G1 Y2.4791
G3 X2.0149 Y2.8433 I-0.2424 J0.3642
G1 Y3.1044
G1 X3.1399
G1 Y2.5635
G3 X2.9554 Y2.3764 I0.2049 J-0.3865
G1 X3.011 Y2.3479
G3 X2.9698 Y2.1769 I0.3337 J-0.171
G1 Y1.8509
G3 X2.8419 Y1.6654 I0.375 J-0.3955
G1 X1.9726
G3 X1.8448 Y1.8507 I-0.5028 J-0.21
G1 Y2.1433
G3 X1.7573 Y2.384 I-0.375 J0.0
G1 Y2.5143
G3 X1.9524 Y2.8433 I-0.1799 J0.329
G1 Y3.1669
G1 X3.2024
G1 Y2.5238
G3 X3.011 Y2.3479 I0.1424 J-0.3469
G1 X3.0667 Y2.3194
G3 X3.0323 Y2.1769 I0.2781 J-0.1425
G1 Y1.823
G3 X2.8854 Y1.6029 I0.3125 J-0.3676
G1 X1.9291
G3 X1.7823 Y1.8229 I-0.4593 J-0.1475
G1 Y2.1433
G3 X1.6948 Y2.3601 I-0.3125 J0.0
G1 Y2.5537
G3 X1.8899 Y2.8433 I-0.1174 J0.2896
G1 Y3.2294
G1 X3.2649
G1 Y2.4791
G3 X3.0667 Y2.3194 I0.0799 J-0.3021
G1 X3.1223 Y2.2909
G3 X3.0948 Y2.1769 I0.2225 J-0.114
G1 Y1.7929
G3 X2.9335 Y1.5404 I0.25 J-0.3375
G1 X1.881
G3 X1.7198 Y1.7927 I-0.4112 J-0.085
G1 Y2.1433
G3 X1.6323 Y2.3333 I-0.25 J0.0
G1 Y2.5994
G3 X1.8274 Y2.8433 I-0.0549 J0.2439
G1 Y3.2919
G1 X3.3274
G1 Y2.4263
G3 X3.1223 Y2.2909 I0.0174 J-0.2494
G1 X3.1779 Y2.2624
G3 X3.1573 Y2.1769 I0.1669 J-0.0855
G1 Y1.7598
G3 X2.988 Y1.4779 I0.1875 J-0.3044
G1 X1.8265
G3 X1.6573 Y1.7596 I-0.3567 J-0.0225
G1 Y2.1433
G3 X1.5698 Y2.3019 I-0.1875 J0.0
G1 Y2.6558
G1 X1.5774
G3 X1.7649 Y2.8433 I0.0 J0.1875
G1 Y3.3544
G1 X3.3899
G1 Y2.3644
G1 X3.3448
G3 X3.1779 Y2.2624 I0.0 J-0.1875
G1 X3.2335 Y2.2339
G3 X3.2198 Y2.1769 I0.1112 J-0.057
G1 Y1.7226
G3 X3.0498 Y1.4554 I0.125 J-0.2672
G1 Y1.4154
G1 X1.7647
G1 Y1.4554
G3 X1.5948 Y1.7225 I-0.2949 J0.0
G1 Y2.1433
G3 X1.5073 Y2.2625 I-0.125 J0.0
G1 Y2.7183
G1 X1.5774
G3 X1.7024 Y2.8433 I0.0 J0.125
G1 Y3.4169
G1 X3.4524
G1 Y2.3019
G1 X3.3448
G3 X3.2335 Y2.2339 I0.0 J-0.125
G1 X3.2892 Y2.2054
G3 X3.2823 Y2.1769 I0.0556 J-0.0285
G1 Y1.6793
G3 X3.1123 Y1.4554 I0.0625 J-0.2239
G1 Y1.3529
G1 X1.7022
G1 Y1.4554
G3 X1.5323 Y1.6792 I-0.2324 J0.0
G1 Y2.1433
G3 X1.4698 Y2.2058 I-0.0625 J0.0
G1 X1.4448
G1 Y2.7808
G1 X1.5774
G3 X1.6399 Y2.8433 I0.0 J0.0625
G1 Y3.4794
G1 X3.5149
G1 Y2.2394
G1 X3.3448
G3 X3.2892 Y2.2054 I0.0 J-0.0625
G0 Z0.125
G0 X2.5104 Y2.6044
G0 Z-0.5475
G1 Z-0.675
G3 X2.4087 Y2.2279 I0.8344 J-0.4275
G1 X2.4035
G3 X2.3815 Y2.3614 I-0.9337 J-0.0846
G3 X2.4839 Y2.6044 I-0.8042 J0.4818
G1 X2.5104
G1 X2.566 Y2.5759
G3 X2.4698 Y2.1769 I0.7787 J-0.399
G1 Y2.1654
G1 X2.3445
G3 X2.3144 Y2.3717 I-0.8747 J-0.0221
G3 X2.4344 Y2.6669 I-0.7371 J0.4715
G1 X2.6199
G3 X2.566 Y2.5759 I0.7249 J-0.49
G1 X2.6217 Y2.5474
G3 X2.5323 Y2.1769 I0.7231 J-0.3705
G1 Y2.1029
G1 X2.2823
G1 Y2.1433
G3 X2.2464 Y2.3822 I-0.8125 J0.0
G3 X2.3818 Y2.7294 I-0.669 J0.4611
G1 X2.749
G3 X2.6217 Y2.5474 I0.5957 J-0.5525
G1 X2.6773 Y2.5189
G3 X2.5948 Y2.1769 I0.6675 J-0.342
G1 Y2.0404
G1 X2.2198
G1 Y2.1433
G3 X2.177 Y2.3929 I-0.75 J0.0
G3 X2.3256 Y2.7919 I-0.5997 J0.4504
G1 X2.8274
G1 Y2.7199
G3 X2.6773 Y2.5189 I0.5174 J-0.5429
G1 X2.7329 Y2.4904
G3 X2.6573 Y2.1769 I0.6119 J-0.3135
G1 Y1.9779
G1 X2.1573
G1 Y2.1433
G3 X2.106 Y2.4038 I-0.6875 J0.0
G3 X2.2649 Y2.8433 I-0.5287 J0.4395
G1 Y2.8544
G1 X2.8899
G1 Y2.6924
G3 X2.7329 Y2.4904 I0.4549 J-0.5155
G1 X2.7885 Y2.4619
G3 X2.7198 Y2.1769 I0.5562 J-0.285
G1 Y1.9467
G3 X2.6964 Y1.9154 I0.625 J-0.4913
G1 X2.1181
G3 X2.0948 Y1.9465 I-0.6483 J-0.46
G1 Y2.1433
G3 X2.0326 Y2.4151 I-0.625 J0.0
G3 X2.2024 Y2.8433 I-0.4552 J0.4282
G1 Y2.9169
G1 X2.9524
G1 Y2.6634
G3 X2.7885 Y2.4619 I0.3924 J-0.4864
G1 X2.8442 Y2.4334
G3 X2.7823 Y2.1769 I0.5006 J-0.2565
G1 Y1.9246
G3 X2.7295 Y1.8529 I0.5625 J-0.4692
G1 X2.0849
G3 X2.0323 Y1.9244 I-0.6151 J-0.3975
G1 Y2.1433
G3 X1.9555 Y2.4269 I-0.5625 J0.0
G3 X2.1399 Y2.8433 I-0.3782 J0.4164
G1 Y2.9794
G1 X3.0149
G1 Y2.6325
G3 X2.8442 Y2.4334 I0.3299 J-0.4556
G1 X2.8998 Y2.4049
G3 X2.8448 Y2.1769 I0.445 J-0.228
G1 Y1.9014
G3 X2.7645 Y1.7904 I0.5 J-0.446
G1 X2.0499
G3 X1.9698 Y1.9012 I-0.5801 J-0.335
G1 Y2.1433
G3 X1.8823 Y2.4258 I-0.5 J0.0
G1 Y2.447
G3 X2.0774 Y2.8433 I-0.3049 J0.3963
G1 Y3.0419
G1 X3.0774
G1 Y2.5994
G3 X2.8998 Y2.4049 I0.2674 J-0.4225
G1 X2.9554 Y2.3764
G3 X2.9073 Y2.1769 I0.3894 J-0.1995
G1 Y1.8769
G3 X2.8018 Y1.7279 I0.4375 J-0.4215
G1 X2.0126
G3 X1.9073 Y1.8767 I-0.5428 J-0.2725
G1 Y2.1433
G3 X1.8198 Y2.4058 I-0.4375 J0.0
G1 Y2.4791
G3 X2.0149 Y2.8433 I-0.2424 J0.3642
G1 Y3.1044
G1 X3.1399
G1 Y2.5635
G3 X2.9554 Y2.3764 I0.2049 J-0.3865
G1 X3.011 Y2.3479
G3 X2.9698 Y2.1769 I0.3337 J-0.171
G1 Y1.8509
G3 X2.8419 Y1.6654 I0.375 J-0.3955
G1 X1.9726
G3 X1.8448 Y1.8507 I-0.5028 J-0.21
G1 Y2.1433
G3 X1.7573 Y2.384 I-0.375 J0.0
G1 Y2.5143
G3 X1.9524 Y2.8433 I-0.1799 J0.329
G1 Y3.1669
G1 X3.2024
G1 Y2.5238
G3 X3.011 Y2.3479 I0.1424 J-0.3469
G1 X3.0667 Y2.3194
G3 X3.0323 Y2.1769 I0.2781 J-0.1425
G1 Y1.823
G3 X2.8854 Y1.6029 I0.3125 J-0.3676
G1 X1.9291
G3 X1.7823 Y1.8229 I-0.4593 J-0.1475
G1 Y2.1433
G3 X1.6948 Y2.3601 I-0.3125 J0.0
G1 Y2.5537
G3 X1.8899 Y2.8433 I-0.1174 J0.2896
G1 Y3.2294
G1 X3.2649
G1 Y2.4791
G3 X3.0667 Y2.3194 I0.0799 J-0.3021
G1 X3.1223 Y2.2909
G3 X3.0948 Y2.1769 I0.2225 J-0.114
G1 Y1.7929
G3 X2.9335 Y1.5404 I0.25 J-0.3375
G1 X1.881
G3 X1.7198 Y1.7927 I-0.4112 J-0.085
G1 Y2.1433
G3 X1.6323 Y2.3333 I-0.25 J0.0
G1 Y2.5994
G3 X1.8274 Y2.8433 I-0.0549 J0.2439
G1 Y3.2919
G1 X3.3274
G1 Y2.4263
G3 X3.1223 Y2.2909 I0.0174 J-0.2494
G1 X3.1779 Y2.2624
G3 X3.1573 Y2.1769 I0.1669 J-0.0855
G1 Y1.7598
G3 X2.988 Y1.4779 I0.1875 J-0.3044
G1 X1.8265
G3 X1.6573 Y1.7596 I-0.3567 J-0.0225
G1 Y2.1433
G3 X1.5698 Y2.3019 I-0.1875 J0.0
G1 Y2.6558
G1 X1.5774
G3 X1.7649 Y2.8433 I0.0 J0.1875
G1 Y3.3544
G1 X3.3899
G1 Y2.3644
G1 X3.3448
G3 X3.1779 Y2.2624 I0.0 J-0.1875
G1 X3.2335 Y2.2339
G3 X3.2198 Y2.1769 I0.1112 J-0.057
G1 Y1.7226
G3 X3.0498 Y1.4554 I0.125 J-0.2672
G1 Y1.4154
G1 X1.7647
G1 Y1.4554
G3 X1.5948 Y1.7225 I-0.2949 J0.0
G1 Y2.1433
G3 X1.5073 Y2.2625 I-0.125 J0.0
G1 Y2.7183
G1 X1.5774
G3 X1.7024 Y2.8433 I0.0 J0.125
G1 Y3.4169
G1 X3.4524
G1 Y2.3019
G1 X3.3448
G3 X3.2335 Y2.2339 I0.0 J-0.125
G1 X3.2892 Y2.2054
G3 X3.2823 Y2.1769 I0.0556 J-0.0285
G1 Y1.6793
G3 X3.1123 Y1.4554 I0.0625 J-0.2239
G1 Y1.3529
G1 X1.7022
G1 Y1.4554
G3 X1.5323 Y1.6792 I-0.2324 J0.0
G1 Y2.1433
G3 X1.4698 Y2.2058 I-0.0625 J0.0
G1 X1.4448
G1 Y2.7808
G1 X1.5774
G3 X1.6399 Y2.8433 I0.0 J0.0625
G1 Y3.4794
G1 X3.5149
G1 Y2.2394
G1 X3.3448
G3 X3.2892 Y2.2054 I0.0 J-0.0625
( clean out corners )
S1000
G0 Z0.25
G0 X3.5149 Y3.4794
G0 Z-0.6125
G1 Z-0.675
G1 Y2.2394
G1 X3.5332 Y2.2211
G1 X3.5149 Y2.2394
G1 X3.3448
G3 X3.2823 Y2.1769 I0.0 J-0.0625
G1 Y1.6793
G1 X3.2975 Y1.6662
G1 X3.2823 Y1.6793
G3 X3.1123 Y1.4554 I0.0625 J-0.2239
G1 Y1.3529
G1 X3.1306 Y1.3346
G1 X3.1123 Y1.3529
G1 X1.7022
G1 X1.6839 Y1.3346
G1 X1.7022 Y1.3529
G1 Y1.4554
G3 X1.5323 Y1.6792 I-0.2324 J0.0
G1 X1.5171 Y1.6661
G1 X1.5323 Y1.6792
G1 Y2.1433
G3 X1.4698 Y2.2058 I-0.0625 J0.0
G1 X1.4448
G1 X1.4265 Y2.1875
G1 X1.4448 Y2.2058
G1 Y2.7808
G1 X1.4265 Y2.7991
G1 X1.4448 Y2.7808
G1 X1.5774
G3 X1.6399 Y2.8433 I0.0 J0.0625
G1 Y3.4794
G1 X1.6215 Y3.4978
G1 X1.6399 Y3.4794
G1 X3.5149
G1 X3.5332 Y3.4978
G1 X3.5149 Y3.4794
( knobhole )
S1000
G0 Z0.125
G0 X2.4109 Y1.7929
G0 Z-0.6075
G1 Z-0.735
G2 X2.3996 Y1.7864 I-0.0075 J0.0
G2 Y1.7994 I0.0038 J0.0065
G2 X2.4109 Y1.7929 I0.0038 J-0.0065
G1 X2.4359
G2 X2.3871 Y1.7647 I-0.0325 J0.0
G2 Y1.821 I0.0162 J0.0281
G2 X2.4359 Y1.7929 I0.0163 J-0.0281
G1 X2.4859
G2 X2.3621 Y1.7214 I-0.0825 J0.0
G2 Y1.8643 I0.0413 J0.0714
G2 X2.4859 Y1.7929 I0.0412 J-0.0714
( led1 )
S1000
G0 Z0.125
G0 X1.7884 Y1.7804
G0 Z-0.6075
G1 Z-0.735
G2 X1.7734 Y1.7717 I-0.01 J0.0
G2 Y1.789 I0.005 J0.0087
G2 X1.7884 Y1.7804 I0.005 J-0.0087
G1 X1.8134
G2 X1.7609 Y1.7501 I-0.035 J0.0
G2 Y1.8107 I0.0175 J0.0303
G2 X1.8134 Y1.7804 I0.0175 J-0.0303
( led2 )
S1000
G0 Z0.125
G0 X3.0384
G0 Z-0.6075
G1 Z-0.735
G2 X3.0234 Y1.7717 I-0.01 J0.0
G2 Y1.789 I0.005 J0.0087
G2 X3.0384 Y1.7804 I0.005 J-0.0087
G1 X3.0634
G2 X3.0109 Y1.7501 I-0.035 J0.0
G2 Y1.8107 I0.0175 J0.0303
G2 X3.0634 Y1.7804 I0.0175 J-0.0303
( LCDcutout )
S1000
G0 Z0.25
G0 X1.7448 Y3.3969
G0 Z-0.5725
G1 Z-0.735
G1 X3.0698
G1 Y2.3219
G1 X1.7448
G1 Y3.3969
( Profile2 )
S1000
G0 Z0.25
G0 X2.7501 Y0.8901
G0 Z0.1125
G1 Z-0.05
G1 Y0.9751
G1 X2.9778
G1 Y0.8901
G1 X2.7501
G1 X2.7001
G1 Y1.0251
G1 X3.0278
G1 Y0.8401
G1 X2.7001
G1 Y0.8901
G1 X2.6501
G1 Y1.0751
G1 X3.0778
G1 Y0.7901
G1 X2.6501
G1 Y0.8901
G1 X2.6051
G1 Y1.1201
G1 X2.5867 Y1.1384
G1 X2.6051 Y1.1201
G1 X3.1228
G1 X3.1411 Y1.1384
G1 X3.1228 Y1.1201
G1 Y0.7451
G1 X3.1411 Y0.7268
G1 X3.1228 Y0.7451
G1 X2.6051
G1 X2.5867 Y0.7268
G1 X2.6051 Y0.7451
G1 Y0.8901
G0 Z0.25
M5
M30
