( Made using CamBam - http://www.cambam.co.uk )
( AIR_LCD_318housing_backonly3.dxf 9/8/2017 11:56:42 PM )
( T3 : 0.125 )
G20 G90 G64 G40
G0 Z0.125
( T3 : 0.125 )
T3 M6
( Perimeter )
G17
M3 S1000
G0 X3.4625 Y0.0
G0 Z0.025
G1 F30.0 Z-0.1
G1 Y3.4
G3 X3.4 Y3.4625 I-0.0625 J0.0
G1 X0.0
G3 X-0.0625 Y3.4 I0.0 J-0.0625
G1 Y0.0
G3 X0.0 Y-0.0625 I0.0625 J0.0
G1 X3.4
G3 X3.4625 Y0.0 I0.0 J0.0625
( Drill1 )
S1000
G0 Z0.125
G0 X0.4625 Y2.9375
G98
G81 X0.4625 Y2.9375 Z-0.125 R0.125 F30.0
G80
( Drill2 )
S1000
G0 Z0.125
G0 X2.9375
G98
G81 X2.9375 Y2.9375 Z-0.125 R0.125 F30.0
G80
( Drill3 )
S1000
G0 Z0.125
G0 Y0.4625
G98
G81 X2.9375 Y0.4625 Z-0.125 R0.125 F30.0
G80
( Drill4 )
S1000
G0 Z0.125
G0 X0.4625
G98
G81 X0.4625 Y0.4625 Z-0.125 R0.125 F30.0
G80
( Pocket1 )
S1000
G0 Z0.125
G0 X1.7076 Y1.6877
G0 Z0.025
G1 F30.0 Z-0.1
G1 Y1.66
G1 X1.6925
G1 Y1.6877
G1 X1.7076
G1 Y1.7377
G1 X1.7576
G1 Y1.61
G1 X1.6425
G1 Y1.7377
G1 X1.7076
G1 Y1.7877
G1 X1.8076
G1 Y1.56
G1 X1.5925
G1 Y1.7877
G1 X1.7076
G1 X1.7075 Y1.8377
G1 X1.8576
G1 Y1.51
G1 X1.5425
G1 Y1.8377
G1 X1.7075
G1 Y1.8877
G1 X1.9076
G1 Y1.46
G1 X1.4925
G1 Y1.8877
G1 X1.7075
G1 Y1.9377
G1 X1.9576
G1 Y1.41
G1 X1.4425
G1 Y1.9377
G1 X1.7075
G1 Y1.9877
G1 X2.0076 Y1.9878
G1 Y1.36
G1 X1.3925
G1 Y1.9876
G1 X1.7075 Y1.9877
G1 Y2.0377
G1 X2.0576 Y2.0378
G1 Y1.31
G1 X1.3425
G1 Y2.0376
G1 X1.7075 Y2.0377
G1 Y2.0877
G1 X2.1076 Y2.0878
G1 Y1.26
G1 X1.2925
G1 Y2.0876
G1 X1.7075 Y2.0877
G1 Y2.1377
G1 X2.1576 Y2.1378
G1 Y1.21
G1 X1.2425
G1 Y2.1376
G1 X1.7075 Y2.1377
G1 Y2.1877
G1 X2.2076 Y2.1878
G1 Y1.16
G1 X1.1925
G1 Y2.1876
G1 X1.7075 Y2.1877
G1 Y2.2377
G1 X2.2576 Y2.2378
G1 Y1.11
G1 X1.1425
G1 Y2.2376
G1 X1.7075 Y2.2377
G1 Y2.2877
G1 X2.3076 Y2.2878
G1 Y1.06
G1 X1.0925
G1 Y2.2876
G1 X1.7075 Y2.2877
G1 Y2.3377
G1 X2.3576 Y2.3378
G1 Y1.01
G1 X1.0425
G1 Y2.3376
G1 X1.7075 Y2.3377
G1 X1.7074 Y2.3877
G1 X2.4076 Y2.3878
G1 Y0.96
G1 X0.9925
G1 Y2.3876
G1 X1.7074 Y2.3877
G1 Y2.4377
G1 X2.4576 Y2.4378
G1 Y0.91
G1 X0.9425
G1 Y2.4376
G1 X1.7074 Y2.4377
G1 Y2.4877
G1 X2.5076 Y2.4878
G1 Y0.86
G1 X0.8925
G1 Y2.4876
G1 X1.7074 Y2.4877
G1 Y2.5377
G1 X2.5576 Y2.5378
G1 Y0.81
G1 X0.8425
G1 Y2.5376
G1 X1.7074 Y2.5377
G1 Y2.5877
G1 X2.6076 Y2.5879
G1 Y0.76
G1 X0.7925
G1 Y2.5875
G1 X1.7074 Y2.5877
G1 Y2.6377
G1 X2.6576 Y2.6379
G1 Y0.71
G1 X0.7425
G1 Y2.6375
G1 X1.7074 Y2.6377
G1 Y2.6877
G1 X2.7076 Y2.6879
G1 Y0.66
G1 X0.6925
G1 Y2.6875
G1 X1.7074 Y2.6877
G1 Y2.7377
G1 X2.7576 Y2.7379
G1 Y0.61
G1 X0.6425
G1 Y2.7375
G1 X1.7074 Y2.7377
G1 Y2.7877
G1 X2.8076 Y2.7879
G1 Y0.56
G1 X0.5925
G1 Y2.7875
G1 X1.7074 Y2.7877
G0 Z0.125
G0 X1.7076 Y1.6877
G0 Z-0.075
G1 Z-0.2
G1 Y1.66
G1 X1.6925
G1 Y1.6877
G1 X1.7076
G1 Y1.7377
G1 X1.7576
G1 Y1.61
G1 X1.6425
G1 Y1.7377
G1 X1.7076
G1 Y1.7877
G1 X1.8076
G1 Y1.56
G1 X1.5925
G1 Y1.7877
G1 X1.7076
G1 X1.7075 Y1.8377
G1 X1.8576
G1 Y1.51
G1 X1.5425
G1 Y1.8377
G1 X1.7075
G1 Y1.8877
G1 X1.9076
G1 Y1.46
G1 X1.4925
G1 Y1.8877
G1 X1.7075
G1 Y1.9377
G1 X1.9576
G1 Y1.41
G1 X1.4425
G1 Y1.9377
G1 X1.7075
G1 Y1.9877
G1 X2.0076 Y1.9878
G1 Y1.36
G1 X1.3925
G1 Y1.9876
G1 X1.7075 Y1.9877
G1 Y2.0377
G1 X2.0576 Y2.0378
G1 Y1.31
G1 X1.3425
G1 Y2.0376
G1 X1.7075 Y2.0377
G1 Y2.0877
G1 X2.1076 Y2.0878
G1 Y1.26
G1 X1.2925
G1 Y2.0876
G1 X1.7075 Y2.0877
G1 Y2.1377
G1 X2.1576 Y2.1378
G1 Y1.21
G1 X1.2425
G1 Y2.1376
G1 X1.7075 Y2.1377
G1 Y2.1877
G1 X2.2076 Y2.1878
G1 Y1.16
G1 X1.1925
G1 Y2.1876
G1 X1.7075 Y2.1877
G1 Y2.2377
G1 X2.2576 Y2.2378
G1 Y1.11
G1 X1.1425
G1 Y2.2376
G1 X1.7075 Y2.2377
G1 Y2.2877
G1 X2.3076 Y2.2878
G1 Y1.06
G1 X1.0925
G1 Y2.2876
G1 X1.7075 Y2.2877
G1 Y2.3377
G1 X2.3576 Y2.3378
G1 Y1.01
G1 X1.0425
G1 Y2.3376
G1 X1.7075 Y2.3377
G1 X1.7074 Y2.3877
G1 X2.4076 Y2.3878
G1 Y0.96
G1 X0.9925
G1 Y2.3876
G1 X1.7074 Y2.3877
G1 Y2.4377
G1 X2.4576 Y2.4378
G1 Y0.91
G1 X0.9425
G1 Y2.4376
G1 X1.7074 Y2.4377
G1 Y2.4877
G1 X2.5076 Y2.4878
G1 Y0.86
G1 X0.8925
G1 Y2.4876
G1 X1.7074 Y2.4877
G1 Y2.5377
G1 X2.5576 Y2.5378
G1 Y0.81
G1 X0.8425
G1 Y2.5376
G1 X1.7074 Y2.5377
G1 Y2.5877
G1 X2.6076 Y2.5879
G1 Y0.76
G1 X0.7925
G1 Y2.5875
G1 X1.7074 Y2.5877
G1 Y2.6377
G1 X2.6576 Y2.6379
G1 Y0.71
G1 X0.7425
G1 Y2.6375
G1 X1.7074 Y2.6377
G1 Y2.6877
G1 X2.7076 Y2.6879
G1 Y0.66
G1 X0.6925
G1 Y2.6875
G1 X1.7074 Y2.6877
G1 Y2.7377
G1 X2.7576 Y2.7379
G1 Y0.61
G1 X0.6425
G1 Y2.7375
G1 X1.7074 Y2.7377
G1 Y2.7877
G1 X2.8076 Y2.7879
G1 Y0.56
G1 X0.5925
G1 Y2.7875
G1 X1.7074 Y2.7877
G0 Z0.125
G0 X1.7076 Y1.6877
G0 Z-0.175
G1 Z-0.29
G1 Y1.66
G1 X1.6925
G1 Y1.6877
G1 X1.7076
G1 Y1.7377
G1 X1.7576
G1 Y1.61
G1 X1.6425
G1 Y1.7377
G1 X1.7076
G1 Y1.7877
G1 X1.8076
G1 Y1.56
G1 X1.5925
G1 Y1.7877
G1 X1.7076
G1 X1.7075 Y1.8377
G1 X1.8576
G1 Y1.51
G1 X1.5425
G1 Y1.8377
G1 X1.7075
G1 Y1.8877
G1 X1.9076
G1 Y1.46
G1 X1.4925
G1 Y1.8877
G1 X1.7075
G1 Y1.9377
G1 X1.9576
G1 Y1.41
G1 X1.4425
G1 Y1.9377
G1 X1.7075
G1 Y1.9877
G1 X2.0076 Y1.9878
G1 Y1.36
G1 X1.3925
G1 Y1.9876
G1 X1.7075 Y1.9877
G1 Y2.0377
G1 X2.0576 Y2.0378
G1 Y1.31
G1 X1.3425
G1 Y2.0376
G1 X1.7075 Y2.0377
G1 Y2.0877
G1 X2.1076 Y2.0878
G1 Y1.26
G1 X1.2925
G1 Y2.0876
G1 X1.7075 Y2.0877
G1 Y2.1377
G1 X2.1576 Y2.1378
G1 Y1.21
G1 X1.2425
G1 Y2.1376
G1 X1.7075 Y2.1377
G1 Y2.1877
G1 X2.2076 Y2.1878
G1 Y1.16
G1 X1.1925
G1 Y2.1876
G1 X1.7075 Y2.1877
G1 Y2.2377
G1 X2.2576 Y2.2378
G1 Y1.11
G1 X1.1425
G1 Y2.2376
G1 X1.7075 Y2.2377
G1 Y2.2877
G1 X2.3076 Y2.2878
G1 Y1.06
G1 X1.0925
G1 Y2.2876
G1 X1.7075 Y2.2877
G1 Y2.3377
G1 X2.3576 Y2.3378
G1 Y1.01
G1 X1.0425
G1 Y2.3376
G1 X1.7075 Y2.3377
G1 X1.7074 Y2.3877
G1 X2.4076 Y2.3878
G1 Y0.96
G1 X0.9925
G1 Y2.3876
G1 X1.7074 Y2.3877
G1 Y2.4377
G1 X2.4576 Y2.4378
G1 Y0.91
G1 X0.9425
G1 Y2.4376
G1 X1.7074 Y2.4377
G1 Y2.4877
G1 X2.5076 Y2.4878
G1 Y0.86
G1 X0.8925
G1 Y2.4876
G1 X1.7074 Y2.4877
G1 Y2.5377
G1 X2.5576 Y2.5378
G1 Y0.81
G1 X0.8425
G1 Y2.5376
G1 X1.7074 Y2.5377
G1 Y2.5877
G1 X2.6076 Y2.5879
G1 Y0.76
G1 X0.7925
G1 Y2.5875
G1 X1.7074 Y2.5877
G1 Y2.6377
G1 X2.6576 Y2.6379
G1 Y0.71
G1 X0.7425
G1 Y2.6375
G1 X1.7074 Y2.6377
G1 Y2.6877
G1 X2.7076 Y2.6879
G1 Y0.66
G1 X0.6925
G1 Y2.6875
G1 X1.7074 Y2.6877
G1 Y2.7377
G1 X2.7576 Y2.7379
G1 Y0.61
G1 X0.6425
G1 Y2.7375
G1 X1.7074 Y2.7377
G1 Y2.7877
G1 X2.8076 Y2.7879
G1 Y0.56
G1 X0.5925
G1 Y2.7875
G1 X1.7074 Y2.7877
( Clean out corners )
S1000
G0 Z0.125
G0 X2.8076 Y2.7879
G1 Z-0.1
G1 Y0.56
G1 X2.8259 Y0.5417
G1 X2.8076 Y0.56
G1 X0.5925
G1 X0.5742 Y0.5417
G1 X0.5925 Y0.56
G1 Y2.7875
G1 X0.5742 Y2.8058
G1 X0.5925 Y2.7875
G1 X2.8076 Y2.7879
G1 X2.8259 Y2.8062
G1 X2.8076 Y2.7879
G1 Z-0.2
G1 Y0.56
G1 X2.8259 Y0.5417
G1 X2.8076 Y0.56
G1 X0.5925
G1 X0.5742 Y0.5417
G1 X0.5925 Y0.56
G1 Y2.7875
G1 X0.5742 Y2.8058
G1 X0.5925 Y2.7875
G1 X2.8076 Y2.7879
G1 X2.8259 Y2.8062
G1 X2.8076 Y2.7879
G0 Z-0.265
G1 Z-0.29
G1 Y0.56
G1 X2.8259 Y0.5417
G1 X2.8076 Y0.56
G1 X0.5925
G1 X0.5742 Y0.5417
G1 X0.5925 Y0.56
G1 Y2.7875
G1 X0.5742 Y2.8058
G1 X0.5925 Y2.7875
G1 X2.8076 Y2.7879
G1 X2.8259 Y2.8062
G1 X2.8076 Y2.7879
( Pocket2 )
S1000
G0 Z0.5
G0 X0.8761 Y3.0343
G0 Z0.025
G1 Z-0.1
G1 Y3.0809
G1 X2.5172
G1 Y3.0343
G1 X0.8761
G1 X0.8511
G1 Y3.1059
G1 X2.5422
G1 Y3.0093
G1 X0.8511
G1 Y3.0343
G1 X0.8011
G1 Y3.1559
G1 X2.5922
G1 Y2.9593
G1 X0.8011
G1 Y3.0343
G1 X0.7511
G1 Y3.2059
G1 X2.6422
G1 Y2.9093
G1 X0.7511
G1 Y3.0343
G0 Z0.5
G0 X0.8761
G0 Z-0.075
G1 Z-0.2
G1 Y3.0809
G1 X2.5172
G1 Y3.0343
G1 X0.8761
G1 X0.8511
G1 Y3.1059
G1 X2.5422
G1 Y3.0093
G1 X0.8511
G1 Y3.0343
G1 X0.8011
G1 Y3.1559
G1 X2.5922
G1 Y2.9593
G1 X0.8011
G1 Y3.0343
G1 X0.7511
G1 Y3.2059
G1 X2.6422
G1 Y2.9093
G1 X0.7511
G1 Y3.0343
G0 Z0.5
G0 X0.8761
G0 Z-0.175
G1 Z-0.29
G1 Y3.0809
G1 X2.5172
G1 Y3.0343
G1 X0.8761
G1 X0.8511
G1 Y3.1059
G1 X2.5422
G1 Y3.0093
G1 X0.8511
G1 Y3.0343
G1 X0.8011
G1 Y3.1559
G1 X2.5922
G1 Y2.9593
G1 X0.8011
G1 Y3.0343
G1 X0.7511
G1 Y3.2059
G1 X2.6422
G1 Y2.9093
G1 X0.7511
G1 Y3.0343
( Pocket3 )
S1000
G0 Z0.125
G0 X1.7053 Y1.9797
G0 Z-0.265
G1 Z-0.39
G3 X1.6761 Y2.0228 I-0.8325 J-0.5312
G1 Y2.2809
G1 X1.7161
G1 Y1.9962
G3 X1.7053 Y1.9797 I0.8216 J-0.5478
G1 X1.6842 Y1.9662
G3 X1.6511 Y2.0148 I-0.8114 J-0.5178
G1 Y2.3059
G1 X1.7411
G1 Y1.9886
G3 X1.7053 Y1.9316 I0.7966 J-0.5401
G3 X1.6842 Y1.9662 I-0.8325 J-0.4831
G1 X1.6421 Y1.9393
G3 X1.6011 Y1.9983 I-0.7692 J-0.4909
G1 Y2.3559
G1 X1.7911
G1 Y1.973
G3 X1.7053 Y1.8222 I0.7466 J-0.5246
G3 X1.6421 Y1.9393 I-0.8325 J-0.3737
G1 X1.5999 Y1.9124
G3 X1.5511 Y1.9812 I-0.7271 J-0.464
G1 Y2.4059
G1 X1.8411
G1 Y1.957
G3 X1.7053 Y1.6741 I0.6966 J-0.5085
G3 X1.5999 Y1.9124 I-0.8325 J-0.2257
G1 X1.5578 Y1.8855
G3 X1.5011 Y1.9637 I-0.6849 J-0.4371
G1 Y2.4559
G1 X1.8911
G1 Y1.9404
G3 X1.7252 Y1.4484 I0.6466 J-0.4919
G1 Y1.41
G1 X1.6853
G1 Y1.4484
G3 X1.5578 Y1.8855 I-0.8125 J0.0
G1 X1.5156 Y1.8586
G3 X1.4511 Y1.9455 I-0.6428 J-0.4102
G1 Y2.5059
G1 X1.9411
G1 Y1.9232
G3 X1.7752 Y1.4484 I0.5966 J-0.4748
G1 Y1.36
G1 X1.6353
G1 Y1.4484
G3 X1.5156 Y1.8586 I-0.7625 J0.0
G1 X1.4735 Y1.8317
G3 X1.4011 Y1.9266 I-0.6006 J-0.3833
G1 Y2.5559
G1 X1.9911
G1 Y1.9054
G3 X1.8252 Y1.4484 I0.5466 J-0.457
G1 Y1.31
G1 X1.5853
G1 Y1.4484
G3 X1.4735 Y1.8317 I-0.7125 J0.0
G1 X1.4313 Y1.8048
G3 X1.3511 Y1.9069 I-0.5585 J-0.3564
G1 Y2.6059
G1 X2.0411
G1 Y1.8869
G3 X1.8752 Y1.4484 I0.4966 J-0.4385
G1 Y1.26
G1 X1.5353
G1 Y1.4484
G3 X1.4313 Y1.8048 I-0.6625 J0.0
G1 X1.3892 Y1.7779
G3 X1.3011 Y1.8863 I-0.5163 J-0.3295
G1 Y2.6559
G1 X2.0911
G1 Y1.8676
G3 X1.9252 Y1.4484 I0.4466 J-0.4191
G1 Y1.2173
G3 X1.9215 Y1.21 I0.5423 J-0.2848
G1 X1.4853
G1 Y1.4484
G3 X1.3892 Y1.7779 I-0.6125 J0.0
G1 X1.347 Y1.751
G3 X1.2511 Y1.8648 I-0.4742 J-0.3026
G1 Y2.7059
G1 X2.1411
G1 Y1.8473
G3 X1.9752 Y1.4484 I0.3966 J-0.3988
G1 Y1.2047
G3 X1.9531 Y1.16 I0.4923 J-0.2722
G1 X1.4468
G3 X1.4353 Y1.1844 I-0.5144 J-0.2275
G1 Y1.4484
G3 X1.347 Y1.751 I-0.5625 J0.0
G1 X1.3049 Y1.7241
G3 X1.2011 Y1.842 I-0.432 J-0.2757
G1 Y2.7559
G1 X2.1911
G1 Y1.8259
G3 X2.0252 Y1.4484 I0.3466 J-0.3775
G1 Y1.1915
G3 X1.9867 Y1.11 I0.4423 J-0.259
G1 X1.4132
G3 X1.3853 Y1.1723 I-0.4808 J-0.1775
G1 Y1.4484
G3 X1.3049 Y1.7241 I-0.5125 J0.0
G1 X1.2627 Y1.6972
G3 X1.1511 Y1.8179 I-0.3899 J-0.2488
G1 Y2.8059
G1 X2.2411
G1 Y1.8033
G3 X2.0752 Y1.4484 I0.2966 J-0.3548
G1 Y1.1775
G3 X2.0229 Y1.06 I0.3923 J-0.245
G1 X1.377
G3 X1.3353 Y1.1595 I-0.4446 J-0.1275
G1 Y1.4484
G3 X1.2627 Y1.6972 I-0.4625 J0.0
G1 X1.2206 Y1.6703
G3 X1.1011 Y1.792 I-0.3477 J-0.2219
G1 Y2.8559
G1 X2.2911
G1 Y1.7791
G3 X2.1252 Y1.4484 I0.2466 J-0.3306
G1 Y1.1627
G3 X2.0623 Y1.01 I0.3423 J-0.2302
G1 X1.3375
G3 X1.2853 Y1.146 I-0.4052 J-0.0775
G1 Y1.4484
G3 X1.2206 Y1.6703 I-0.4125 J0.0
G1 X1.1784 Y1.6434
G3 X1.0511 Y1.7641 I-0.3056 J-0.195
G1 Y2.9059
G1 X2.3411
G1 Y1.753
G3 X2.1752 Y1.4484 I0.1966 J-0.3045
G1 Y1.1469
G3 X2.106 Y0.96 I0.2923 J-0.2144
G1 X1.2938
G3 X1.2353 Y1.1316 I-0.3615 J-0.0275
G1 Y1.4484
G3 X1.1784 Y1.6434 I-0.3625 J0.0
G1 X1.1363 Y1.6166
G3 X1.0011 Y1.7334 I-0.2634 J-0.1681
G1 Y2.9559
G1 X2.3911
G1 Y1.7244
G3 X2.2252 Y1.4484 I0.1466 J-0.276
G1 Y1.1299
G3 X2.155 Y0.9325 I0.2423 J-0.1974
G1 Y0.91
G1 X1.2449
G1 Y0.9325
G3 X1.1853 Y1.116 I-0.3125 J0.0
G1 Y1.4484
G3 X1.1363 Y1.6166 I-0.3125 J0.0
G1 X1.0941 Y1.5897
G3 X0.9511 Y1.699 I-0.2213 J-0.1412
G1 Y3.0059
G1 X2.4411
G1 Y1.6925
G3 X2.2752 Y1.4484 I0.0966 J-0.2441
G1 Y1.1112
G3 X2.205 Y0.9325 I0.1923 J-0.1787
G1 Y0.86
G1 X1.1949
G1 Y0.9325
G3 X1.1353 Y1.099 I-0.2625 J0.0
G1 Y1.4484
G3 X1.0941 Y1.5897 I-0.2625 J0.0
G1 X1.052 Y1.5628
G3 X0.9011 Y1.6591 I-0.1791 J-0.1143
G1 Y3.0559
G1 X2.4911
G1 Y1.6558
G3 X2.3252 Y1.4484 I0.0466 J-0.2073
G1 Y1.0904
G3 X2.255 Y0.9325 I0.1423 J-0.1579
G1 Y0.81
G1 X1.1449
G1 Y0.9325
G3 X1.0853 Y1.08 I-0.2125 J0.0
G1 Y1.4484
G3 X1.052 Y1.5628 I-0.2125 J0.0
G1 X1.0098 Y1.5359
G3 X0.8728 Y1.6109 I-0.137 J-0.0874
G1 X0.8511
G1 Y3.1059
G1 X2.5411
G1 Y1.6109
G1 X2.5377
G3 X2.3752 Y1.4484 I0.0 J-0.1625
G1 Y1.0663
G3 X2.305 Y0.9325 I0.0923 J-0.1338
G1 Y0.76
G1 X1.0949
G1 Y0.9325
G3 X1.0353 Y1.0582 I-0.1625 J0.0
G1 Y1.4484
G3 X1.0098 Y1.5359 I-0.1625 J0.0
G1 X0.9677 Y1.509
G3 X0.8728 Y1.5609 I-0.0948 J-0.0605
G1 X0.8011
G1 Y3.1559
G1 X2.5911
G1 Y1.5609
G1 X2.5377
G3 X2.4252 Y1.4484 I0.0 J-0.1125
G1 Y1.0368
G3 X2.355 Y0.9325 I0.0423 J-0.1043
G1 Y0.71
G1 X1.0449
G1 Y0.9325
G3 X0.9853 Y1.0318 I-0.1125 J0.0
G1 Y1.4484
G3 X0.9677 Y1.509 I-0.1125 J0.0
G1 X0.9255 Y1.4821
G3 X0.8728 Y1.5109 I-0.0527 J-0.0336
G1 X0.7511
G1 Y3.2059
G1 X2.6411
G1 Y1.5109
G1 X2.5377
G3 X2.4752 Y1.4484 I0.0 J-0.0625
G1 Y0.995
G1 X2.4675
G3 X2.405 Y0.9325 I0.0 J-0.0625
G1 Y0.66
G1 X0.9949
G1 Y0.9325
G3 X0.9353 Y0.9949 I-0.0625 J0.0
G1 Y1.4484
G3 X0.9255 Y1.4821 I-0.0625 J0.0
G0 Z0.125
G0 X1.7053 Y1.9797
G0 Z-0.365
G1 Z-0.49
G3 X1.6761 Y2.0228 I-0.8325 J-0.5312
G1 Y2.2809
G1 X1.7161
G1 Y1.9962
G3 X1.7053 Y1.9797 I0.8216 J-0.5478
G1 X1.6842 Y1.9662
G3 X1.6511 Y2.0148 I-0.8114 J-0.5178
G1 Y2.3059
G1 X1.7411
G1 Y1.9886
G3 X1.7053 Y1.9316 I0.7966 J-0.5401
G3 X1.6842 Y1.9662 I-0.8325 J-0.4831
G1 X1.6421 Y1.9393
G3 X1.6011 Y1.9983 I-0.7692 J-0.4909
G1 Y2.3559
G1 X1.7911
G1 Y1.973
G3 X1.7053 Y1.8222 I0.7466 J-0.5246
G3 X1.6421 Y1.9393 I-0.8325 J-0.3737
G1 X1.5999 Y1.9124
G3 X1.5511 Y1.9812 I-0.7271 J-0.464
G1 Y2.4059
G1 X1.8411
G1 Y1.957
G3 X1.7053 Y1.6741 I0.6966 J-0.5085
G3 X1.5999 Y1.9124 I-0.8325 J-0.2257
G1 X1.5578 Y1.8855
G3 X1.5011 Y1.9637 I-0.6849 J-0.4371
G1 Y2.4559
G1 X1.8911
G1 Y1.9404
G3 X1.7252 Y1.4484 I0.6466 J-0.4919
G1 Y1.41
G1 X1.6853
G1 Y1.4484
G3 X1.5578 Y1.8855 I-0.8125 J0.0
G1 X1.5156 Y1.8586
G3 X1.4511 Y1.9455 I-0.6428 J-0.4102
G1 Y2.5059
G1 X1.9411
G1 Y1.9232
G3 X1.7752 Y1.4484 I0.5966 J-0.4748
G1 Y1.36
G1 X1.6353
G1 Y1.4484
G3 X1.5156 Y1.8586 I-0.7625 J0.0
G1 X1.4735 Y1.8317
G3 X1.4011 Y1.9266 I-0.6006 J-0.3833
G1 Y2.5559
G1 X1.9911
G1 Y1.9054
G3 X1.8252 Y1.4484 I0.5466 J-0.457
G1 Y1.31
G1 X1.5853
G1 Y1.4484
G3 X1.4735 Y1.8317 I-0.7125 J0.0
G1 X1.4313 Y1.8048
G3 X1.3511 Y1.9069 I-0.5585 J-0.3564
G1 Y2.6059
G1 X2.0411
G1 Y1.8869
G3 X1.8752 Y1.4484 I0.4966 J-0.4385
G1 Y1.26
G1 X1.5353
G1 Y1.4484
G3 X1.4313 Y1.8048 I-0.6625 J0.0
G1 X1.3892 Y1.7779
G3 X1.3011 Y1.8863 I-0.5163 J-0.3295
G1 Y2.6559
G1 X2.0911
G1 Y1.8676
G3 X1.9252 Y1.4484 I0.4466 J-0.4191
G1 Y1.2173
G3 X1.9215 Y1.21 I0.5423 J-0.2848
G1 X1.4853
G1 Y1.4484
G3 X1.3892 Y1.7779 I-0.6125 J0.0
G1 X1.347 Y1.751
G3 X1.2511 Y1.8648 I-0.4742 J-0.3026
G1 Y2.7059
G1 X2.1411
G1 Y1.8473
G3 X1.9752 Y1.4484 I0.3966 J-0.3988
G1 Y1.2047
G3 X1.9531 Y1.16 I0.4923 J-0.2722
G1 X1.4468
G3 X1.4353 Y1.1844 I-0.5144 J-0.2275
G1 Y1.4484
G3 X1.347 Y1.751 I-0.5625 J0.0
G1 X1.3049 Y1.7241
G3 X1.2011 Y1.842 I-0.432 J-0.2757
G1 Y2.7559
G1 X2.1911
G1 Y1.8259
G3 X2.0252 Y1.4484 I0.3466 J-0.3775
G1 Y1.1915
G3 X1.9867 Y1.11 I0.4423 J-0.259
G1 X1.4132
G3 X1.3853 Y1.1723 I-0.4808 J-0.1775
G1 Y1.4484
G3 X1.3049 Y1.7241 I-0.5125 J0.0
G1 X1.2627 Y1.6972
G3 X1.1511 Y1.8179 I-0.3899 J-0.2488
G1 Y2.8059
G1 X2.2411
G1 Y1.8033
G3 X2.0752 Y1.4484 I0.2966 J-0.3548
G1 Y1.1775
G3 X2.0229 Y1.06 I0.3923 J-0.245
G1 X1.377
G3 X1.3353 Y1.1595 I-0.4446 J-0.1275
G1 Y1.4484
G3 X1.2627 Y1.6972 I-0.4625 J0.0
G1 X1.2206 Y1.6703
G3 X1.1011 Y1.792 I-0.3477 J-0.2219
G1 Y2.8559
G1 X2.2911
G1 Y1.7791
G3 X2.1252 Y1.4484 I0.2466 J-0.3306
G1 Y1.1627
G3 X2.0623 Y1.01 I0.3423 J-0.2302
G1 X1.3375
G3 X1.2853 Y1.146 I-0.4052 J-0.0775
G1 Y1.4484
G3 X1.2206 Y1.6703 I-0.4125 J0.0
G1 X1.1784 Y1.6434
G3 X1.0511 Y1.7641 I-0.3056 J-0.195
G1 Y2.9059
G1 X2.3411
G1 Y1.753
G3 X2.1752 Y1.4484 I0.1966 J-0.3045
G1 Y1.1469
G3 X2.106 Y0.96 I0.2923 J-0.2144
G1 X1.2938
G3 X1.2353 Y1.1316 I-0.3615 J-0.0275
G1 Y1.4484
G3 X1.1784 Y1.6434 I-0.3625 J0.0
G1 X1.1363 Y1.6166
G3 X1.0011 Y1.7334 I-0.2634 J-0.1681
G1 Y2.9559
G1 X2.3911
G1 Y1.7244
G3 X2.2252 Y1.4484 I0.1466 J-0.276
G1 Y1.1299
G3 X2.155 Y0.9325 I0.2423 J-0.1974
G1 Y0.91
G1 X1.2449
G1 Y0.9325
G3 X1.1853 Y1.116 I-0.3125 J0.0
G1 Y1.4484
G3 X1.1363 Y1.6166 I-0.3125 J0.0
G1 X1.0941 Y1.5897
G3 X0.9511 Y1.699 I-0.2213 J-0.1412
G1 Y3.0059
G1 X2.4411
G1 Y1.6925
G3 X2.2752 Y1.4484 I0.0966 J-0.2441
G1 Y1.1112
G3 X2.205 Y0.9325 I0.1923 J-0.1787
G1 Y0.86
G1 X1.1949
G1 Y0.9325
G3 X1.1353 Y1.099 I-0.2625 J0.0
G1 Y1.4484
G3 X1.0941 Y1.5897 I-0.2625 J0.0
G1 X1.052 Y1.5628
G3 X0.9011 Y1.6591 I-0.1791 J-0.1143
G1 Y3.0559
G1 X2.4911
G1 Y1.6558
G3 X2.3252 Y1.4484 I0.0466 J-0.2073
G1 Y1.0904
G3 X2.255 Y0.9325 I0.1423 J-0.1579
G1 Y0.81
G1 X1.1449
G1 Y0.9325
G3 X1.0853 Y1.08 I-0.2125 J0.0
G1 Y1.4484
G3 X1.052 Y1.5628 I-0.2125 J0.0
G1 X1.0098 Y1.5359
G3 X0.8728 Y1.6109 I-0.137 J-0.0874
G1 X0.8511
G1 Y3.1059
G1 X2.5411
G1 Y1.6109
G1 X2.5377
G3 X2.3752 Y1.4484 I0.0 J-0.1625
G1 Y1.0663
G3 X2.305 Y0.9325 I0.0923 J-0.1338
G1 Y0.76
G1 X1.0949
G1 Y0.9325
G3 X1.0353 Y1.0582 I-0.1625 J0.0
G1 Y1.4484
G3 X1.0098 Y1.5359 I-0.1625 J0.0
G1 X0.9677 Y1.509
G3 X0.8728 Y1.5609 I-0.0948 J-0.0605
G1 X0.8011
G1 Y3.1559
G1 X2.5911
G1 Y1.5609
G1 X2.5377
G3 X2.4252 Y1.4484 I0.0 J-0.1125
G1 Y1.0368
G3 X2.355 Y0.9325 I0.0423 J-0.1043
G1 Y0.71
G1 X1.0449
G1 Y0.9325
G3 X0.9853 Y1.0318 I-0.1125 J0.0
G1 Y1.4484
G3 X0.9677 Y1.509 I-0.1125 J0.0
G1 X0.9255 Y1.4821
G3 X0.8728 Y1.5109 I-0.0527 J-0.0336
G1 X0.7511
G1 Y3.2059
G1 X2.6411
G1 Y1.5109
G1 X2.5377
G3 X2.4752 Y1.4484 I0.0 J-0.0625
G1 Y0.995
G1 X2.4675
G3 X2.405 Y0.9325 I0.0 J-0.0625
G1 Y0.66
G1 X0.9949
G1 Y0.9325
G3 X0.9353 Y0.9949 I-0.0625 J0.0
G1 Y1.4484
G3 X0.9255 Y1.4821 I-0.0625 J0.0
G0 Z0.125
G0 X1.7053 Y1.9797
G0 Z-0.465
G1 Z-0.59
G3 X1.6761 Y2.0228 I-0.8325 J-0.5312
G1 Y2.2809
G1 X1.7161
G1 Y1.9962
G3 X1.7053 Y1.9797 I0.8216 J-0.5478
G1 X1.6842 Y1.9662
G3 X1.6511 Y2.0148 I-0.8114 J-0.5178
G1 Y2.3059
G1 X1.7411
G1 Y1.9886
G3 X1.7053 Y1.9316 I0.7966 J-0.5401
G3 X1.6842 Y1.9662 I-0.8325 J-0.4831
G1 X1.6421 Y1.9393
G3 X1.6011 Y1.9983 I-0.7692 J-0.4909
G1 Y2.3559
G1 X1.7911
G1 Y1.973
G3 X1.7053 Y1.8222 I0.7466 J-0.5246
G3 X1.6421 Y1.9393 I-0.8325 J-0.3737
G1 X1.5999 Y1.9124
G3 X1.5511 Y1.9812 I-0.7271 J-0.464
G1 Y2.4059
G1 X1.8411
G1 Y1.957
G3 X1.7053 Y1.6741 I0.6966 J-0.5085
G3 X1.5999 Y1.9124 I-0.8325 J-0.2257
G1 X1.5578 Y1.8855
G3 X1.5011 Y1.9637 I-0.6849 J-0.4371
G1 Y2.4559
G1 X1.8911
G1 Y1.9404
G3 X1.7252 Y1.4484 I0.6466 J-0.4919
G1 Y1.41
G1 X1.6853
G1 Y1.4484
G3 X1.5578 Y1.8855 I-0.8125 J0.0
G1 X1.5156 Y1.8586
G3 X1.4511 Y1.9455 I-0.6428 J-0.4102
G1 Y2.5059
G1 X1.9411
G1 Y1.9232
G3 X1.7752 Y1.4484 I0.5966 J-0.4748
G1 Y1.36
G1 X1.6353
G1 Y1.4484
G3 X1.5156 Y1.8586 I-0.7625 J0.0
G1 X1.4735 Y1.8317
G3 X1.4011 Y1.9266 I-0.6006 J-0.3833
G1 Y2.5559
G1 X1.9911
G1 Y1.9054
G3 X1.8252 Y1.4484 I0.5466 J-0.457
G1 Y1.31
G1 X1.5853
G1 Y1.4484
G3 X1.4735 Y1.8317 I-0.7125 J0.0
G1 X1.4313 Y1.8048
G3 X1.3511 Y1.9069 I-0.5585 J-0.3564
G1 Y2.6059
G1 X2.0411
G1 Y1.8869
G3 X1.8752 Y1.4484 I0.4966 J-0.4385
G1 Y1.26
G1 X1.5353
G1 Y1.4484
G3 X1.4313 Y1.8048 I-0.6625 J0.0
G1 X1.3892 Y1.7779
G3 X1.3011 Y1.8863 I-0.5163 J-0.3295
G1 Y2.6559
G1 X2.0911
G1 Y1.8676
G3 X1.9252 Y1.4484 I0.4466 J-0.4191
G1 Y1.2173
G3 X1.9215 Y1.21 I0.5423 J-0.2848
G1 X1.4853
G1 Y1.4484
G3 X1.3892 Y1.7779 I-0.6125 J0.0
G1 X1.347 Y1.751
G3 X1.2511 Y1.8648 I-0.4742 J-0.3026
G1 Y2.7059
G1 X2.1411
G1 Y1.8473
G3 X1.9752 Y1.4484 I0.3966 J-0.3988
G1 Y1.2047
G3 X1.9531 Y1.16 I0.4923 J-0.2722
G1 X1.4468
G3 X1.4353 Y1.1844 I-0.5144 J-0.2275
G1 Y1.4484
G3 X1.347 Y1.751 I-0.5625 J0.0
G1 X1.3049 Y1.7241
G3 X1.2011 Y1.842 I-0.432 J-0.2757
G1 Y2.7559
G1 X2.1911
G1 Y1.8259
G3 X2.0252 Y1.4484 I0.3466 J-0.3775
G1 Y1.1915
G3 X1.9867 Y1.11 I0.4423 J-0.259
G1 X1.4132
G3 X1.3853 Y1.1723 I-0.4808 J-0.1775
G1 Y1.4484
G3 X1.3049 Y1.7241 I-0.5125 J0.0
G1 X1.2627 Y1.6972
G3 X1.1511 Y1.8179 I-0.3899 J-0.2488
G1 Y2.8059
G1 X2.2411
G1 Y1.8033
G3 X2.0752 Y1.4484 I0.2966 J-0.3548
G1 Y1.1775
G3 X2.0229 Y1.06 I0.3923 J-0.245
G1 X1.377
G3 X1.3353 Y1.1595 I-0.4446 J-0.1275
G1 Y1.4484
G3 X1.2627 Y1.6972 I-0.4625 J0.0
G1 X1.2206 Y1.6703
G3 X1.1011 Y1.792 I-0.3477 J-0.2219
G1 Y2.8559
G1 X2.2911
G1 Y1.7791
G3 X2.1252 Y1.4484 I0.2466 J-0.3306
G1 Y1.1627
G3 X2.0623 Y1.01 I0.3423 J-0.2302
G1 X1.3375
G3 X1.2853 Y1.146 I-0.4052 J-0.0775
G1 Y1.4484
G3 X1.2206 Y1.6703 I-0.4125 J0.0
G1 X1.1784 Y1.6434
G3 X1.0511 Y1.7641 I-0.3056 J-0.195
G1 Y2.9059
G1 X2.3411
G1 Y1.753
G3 X2.1752 Y1.4484 I0.1966 J-0.3045
G1 Y1.1469
G3 X2.106 Y0.96 I0.2923 J-0.2144
G1 X1.2938
G3 X1.2353 Y1.1316 I-0.3615 J-0.0275
G1 Y1.4484
G3 X1.1784 Y1.6434 I-0.3625 J0.0
G1 X1.1363 Y1.6166
G3 X1.0011 Y1.7334 I-0.2634 J-0.1681
G1 Y2.9559
G1 X2.3911
G1 Y1.7244
G3 X2.2252 Y1.4484 I0.1466 J-0.276
G1 Y1.1299
G3 X2.155 Y0.9325 I0.2423 J-0.1974
G1 Y0.91
G1 X1.2449
G1 Y0.9325
G3 X1.1853 Y1.116 I-0.3125 J0.0
G1 Y1.4484
G3 X1.1363 Y1.6166 I-0.3125 J0.0
G1 X1.0941 Y1.5897
G3 X0.9511 Y1.699 I-0.2213 J-0.1412
G1 Y3.0059
G1 X2.4411
G1 Y1.6925
G3 X2.2752 Y1.4484 I0.0966 J-0.2441
G1 Y1.1112
G3 X2.205 Y0.9325 I0.1923 J-0.1787
G1 Y0.86
G1 X1.1949
G1 Y0.9325
G3 X1.1353 Y1.099 I-0.2625 J0.0
G1 Y1.4484
G3 X1.0941 Y1.5897 I-0.2625 J0.0
G1 X1.052 Y1.5628
G3 X0.9011 Y1.6591 I-0.1791 J-0.1143
G1 Y3.0559
G1 X2.4911
G1 Y1.6558
G3 X2.3252 Y1.4484 I0.0466 J-0.2073
G1 Y1.0904
G3 X2.255 Y0.9325 I0.1423 J-0.1579
G1 Y0.81
G1 X1.1449
G1 Y0.9325
G3 X1.0853 Y1.08 I-0.2125 J0.0
G1 Y1.4484
G3 X1.052 Y1.5628 I-0.2125 J0.0
G1 X1.0098 Y1.5359
G3 X0.8728 Y1.6109 I-0.137 J-0.0874
G1 X0.8511
G1 Y3.1059
G1 X2.5411
G1 Y1.6109
G1 X2.5377
G3 X2.3752 Y1.4484 I0.0 J-0.1625
G1 Y1.0663
G3 X2.305 Y0.9325 I0.0923 J-0.1338
G1 Y0.76
G1 X1.0949
G1 Y0.9325
G3 X1.0353 Y1.0582 I-0.1625 J0.0
G1 Y1.4484
G3 X1.0098 Y1.5359 I-0.1625 J0.0
G1 X0.9677 Y1.509
G3 X0.8728 Y1.5609 I-0.0948 J-0.0605
G1 X0.8011
G1 Y3.1559
G1 X2.5911
G1 Y1.5609
G1 X2.5377
G3 X2.4252 Y1.4484 I0.0 J-0.1125
G1 Y1.0368
G3 X2.355 Y0.9325 I0.0423 J-0.1043
G1 Y0.71
G1 X1.0449
G1 Y0.9325
G3 X0.9853 Y1.0318 I-0.1125 J0.0
G1 Y1.4484
G3 X0.9677 Y1.509 I-0.1125 J0.0
G1 X0.9255 Y1.4821
G3 X0.8728 Y1.5109 I-0.0527 J-0.0336
G1 X0.7511
G1 Y3.2059
G1 X2.6411
G1 Y1.5109
G1 X2.5377
G3 X2.4752 Y1.4484 I0.0 J-0.0625
G1 Y0.995
G1 X2.4675
G3 X2.405 Y0.9325 I0.0 J-0.0625
G1 Y0.66
G1 X0.9949
G1 Y0.9325
G3 X0.9353 Y0.9949 I-0.0625 J0.0
G1 Y1.4484
G3 X0.9255 Y1.4821 I-0.0625 J0.0
G0 Z0.125
G0 X1.7053 Y1.9797
G0 Z-0.565
G1 Z-0.655
G3 X1.6761 Y2.0228 I-0.8325 J-0.5312
G1 Y2.2809
G1 X1.7161
G1 Y1.9962
G3 X1.7053 Y1.9797 I0.8216 J-0.5478
G1 X1.6842 Y1.9662
G3 X1.6511 Y2.0148 I-0.8114 J-0.5178
G1 Y2.3059
G1 X1.7411
G1 Y1.9886
G3 X1.7053 Y1.9316 I0.7966 J-0.5401
G3 X1.6842 Y1.9662 I-0.8325 J-0.4831
G1 X1.6421 Y1.9393
G3 X1.6011 Y1.9983 I-0.7692 J-0.4909
G1 Y2.3559
G1 X1.7911
G1 Y1.973
G3 X1.7053 Y1.8222 I0.7466 J-0.5246
G3 X1.6421 Y1.9393 I-0.8325 J-0.3737
G1 X1.5999 Y1.9124
G3 X1.5511 Y1.9812 I-0.7271 J-0.464
G1 Y2.4059
G1 X1.8411
G1 Y1.957
G3 X1.7053 Y1.6741 I0.6966 J-0.5085
G3 X1.5999 Y1.9124 I-0.8325 J-0.2257
G1 X1.5578 Y1.8855
G3 X1.5011 Y1.9637 I-0.6849 J-0.4371
G1 Y2.4559
G1 X1.8911
G1 Y1.9404
G3 X1.7252 Y1.4484 I0.6466 J-0.4919
G1 Y1.41
G1 X1.6853
G1 Y1.4484
G3 X1.5578 Y1.8855 I-0.8125 J0.0
G1 X1.5156 Y1.8586
G3 X1.4511 Y1.9455 I-0.6428 J-0.4102
G1 Y2.5059
G1 X1.9411
G1 Y1.9232
G3 X1.7752 Y1.4484 I0.5966 J-0.4748
G1 Y1.36
G1 X1.6353
G1 Y1.4484
G3 X1.5156 Y1.8586 I-0.7625 J0.0
G1 X1.4735 Y1.8317
G3 X1.4011 Y1.9266 I-0.6006 J-0.3833
G1 Y2.5559
G1 X1.9911
G1 Y1.9054
G3 X1.8252 Y1.4484 I0.5466 J-0.457
G1 Y1.31
G1 X1.5853
G1 Y1.4484
G3 X1.4735 Y1.8317 I-0.7125 J0.0
G1 X1.4313 Y1.8048
G3 X1.3511 Y1.9069 I-0.5585 J-0.3564
G1 Y2.6059
G1 X2.0411
G1 Y1.8869
G3 X1.8752 Y1.4484 I0.4966 J-0.4385
G1 Y1.26
G1 X1.5353
G1 Y1.4484
G3 X1.4313 Y1.8048 I-0.6625 J0.0
G1 X1.3892 Y1.7779
G3 X1.3011 Y1.8863 I-0.5163 J-0.3295
G1 Y2.6559
G1 X2.0911
G1 Y1.8676
G3 X1.9252 Y1.4484 I0.4466 J-0.4191
G1 Y1.2173
G3 X1.9215 Y1.21 I0.5423 J-0.2848
G1 X1.4853
G1 Y1.4484
G3 X1.3892 Y1.7779 I-0.6125 J0.0
G1 X1.347 Y1.751
G3 X1.2511 Y1.8648 I-0.4742 J-0.3026
G1 Y2.7059
G1 X2.1411
G1 Y1.8473
G3 X1.9752 Y1.4484 I0.3966 J-0.3988
G1 Y1.2047
G3 X1.9531 Y1.16 I0.4923 J-0.2722
G1 X1.4468
G3 X1.4353 Y1.1844 I-0.5144 J-0.2275
G1 Y1.4484
G3 X1.347 Y1.751 I-0.5625 J0.0
G1 X1.3049 Y1.7241
G3 X1.2011 Y1.842 I-0.432 J-0.2757
G1 Y2.7559
G1 X2.1911
G1 Y1.8259
G3 X2.0252 Y1.4484 I0.3466 J-0.3775
G1 Y1.1915
G3 X1.9867 Y1.11 I0.4423 J-0.259
G1 X1.4132
G3 X1.3853 Y1.1723 I-0.4808 J-0.1775
G1 Y1.4484
G3 X1.3049 Y1.7241 I-0.5125 J0.0
G1 X1.2627 Y1.6972
G3 X1.1511 Y1.8179 I-0.3899 J-0.2488
G1 Y2.8059
G1 X2.2411
G1 Y1.8033
G3 X2.0752 Y1.4484 I0.2966 J-0.3548
G1 Y1.1775
G3 X2.0229 Y1.06 I0.3923 J-0.245
G1 X1.377
G3 X1.3353 Y1.1595 I-0.4446 J-0.1275
G1 Y1.4484
G3 X1.2627 Y1.6972 I-0.4625 J0.0
G1 X1.2206 Y1.6703
G3 X1.1011 Y1.792 I-0.3477 J-0.2219
G1 Y2.8559
G1 X2.2911
G1 Y1.7791
G3 X2.1252 Y1.4484 I0.2466 J-0.3306
G1 Y1.1627
G3 X2.0623 Y1.01 I0.3423 J-0.2302
G1 X1.3375
G3 X1.2853 Y1.146 I-0.4052 J-0.0775
G1 Y1.4484
G3 X1.2206 Y1.6703 I-0.4125 J0.0
G1 X1.1784 Y1.6434
G3 X1.0511 Y1.7641 I-0.3056 J-0.195
G1 Y2.9059
G1 X2.3411
G1 Y1.753
G3 X2.1752 Y1.4484 I0.1966 J-0.3045
G1 Y1.1469
G3 X2.106 Y0.96 I0.2923 J-0.2144
G1 X1.2938
G3 X1.2353 Y1.1316 I-0.3615 J-0.0275
G1 Y1.4484
G3 X1.1784 Y1.6434 I-0.3625 J0.0
G1 X1.1363 Y1.6166
G3 X1.0011 Y1.7334 I-0.2634 J-0.1681
G1 Y2.9559
G1 X2.3911
G1 Y1.7244
G3 X2.2252 Y1.4484 I0.1466 J-0.276
G1 Y1.1299
G3 X2.155 Y0.9325 I0.2423 J-0.1974
G1 Y0.91
G1 X1.2449
G1 Y0.9325
G3 X1.1853 Y1.116 I-0.3125 J0.0
G1 Y1.4484
G3 X1.1363 Y1.6166 I-0.3125 J0.0
G1 X1.0941 Y1.5897
G3 X0.9511 Y1.699 I-0.2213 J-0.1412
G1 Y3.0059
G1 X2.4411
G1 Y1.6925
G3 X2.2752 Y1.4484 I0.0966 J-0.2441
G1 Y1.1112
G3 X2.205 Y0.9325 I0.1923 J-0.1787
G1 Y0.86
G1 X1.1949
G1 Y0.9325
G3 X1.1353 Y1.099 I-0.2625 J0.0
G1 Y1.4484
G3 X1.0941 Y1.5897 I-0.2625 J0.0
G1 X1.052 Y1.5628
G3 X0.9011 Y1.6591 I-0.1791 J-0.1143
G1 Y3.0559
G1 X2.4911
G1 Y1.6558
G3 X2.3252 Y1.4484 I0.0466 J-0.2073
G1 Y1.0904
G3 X2.255 Y0.9325 I0.1423 J-0.1579
G1 Y0.81
G1 X1.1449
G1 Y0.9325
G3 X1.0853 Y1.08 I-0.2125 J0.0
G1 Y1.4484
G3 X1.052 Y1.5628 I-0.2125 J0.0
G1 X1.0098 Y1.5359
G3 X0.8728 Y1.6109 I-0.137 J-0.0874
G1 X0.8511
G1 Y3.1059
G1 X2.5411
G1 Y1.6109
G1 X2.5377
G3 X2.3752 Y1.4484 I0.0 J-0.1625
G1 Y1.0663
G3 X2.305 Y0.9325 I0.0923 J-0.1338
G1 Y0.76
G1 X1.0949
G1 Y0.9325
G3 X1.0353 Y1.0582 I-0.1625 J0.0
G1 Y1.4484
G3 X1.0098 Y1.5359 I-0.1625 J0.0
G1 X0.9677 Y1.509
G3 X0.8728 Y1.5609 I-0.0948 J-0.0605
G1 X0.8011
G1 Y3.1559
G1 X2.5911
G1 Y1.5609
G1 X2.5377
G3 X2.4252 Y1.4484 I0.0 J-0.1125
G1 Y1.0368
G3 X2.355 Y0.9325 I0.0423 J-0.1043
G1 Y0.71
G1 X1.0449
G1 Y0.9325
G3 X0.9853 Y1.0318 I-0.1125 J0.0
G1 Y1.4484
G3 X0.9677 Y1.509 I-0.1125 J0.0
G1 X0.9255 Y1.4821
G3 X0.8728 Y1.5109 I-0.0527 J-0.0336
G1 X0.7511
G1 Y3.2059
G1 X2.6411
G1 Y1.5109
G1 X2.5377
G3 X2.4752 Y1.4484 I0.0 J-0.0625
G1 Y0.995
G1 X2.4675
G3 X2.405 Y0.9325 I0.0 J-0.0625
G1 Y0.66
G1 X0.9949
G1 Y0.9325
G3 X0.9353 Y0.9949 I-0.0625 J0.0
G1 Y1.4484
G3 X0.9255 Y1.4821 I-0.0625 J0.0
( Knob )
S1000
G0 Z0.0
G0 X1.7036 Y1.1
G0 Z-0.615
G1 Z-0.74
G2 X1.6923 Y1.0935 I-0.0075 J0.0
G2 Y1.1065 I0.0038 J0.0065
G2 X1.7036 Y1.1 I0.0038 J-0.0065
G1 X1.7286
G2 X1.6798 Y1.0719 I-0.0325 J0.0
G2 Y1.1281 I0.0162 J0.0281
G2 X1.7286 Y1.1 I0.0163 J-0.0281
G1 X1.7786
G2 X1.6548 Y1.0286 I-0.0825 J0.0
G2 Y1.1714 I0.0413 J0.0714
G2 X1.7786 Y1.1 I0.0412 J-0.0714
( LCD )
S1000
G0 Z0.0
G0 X1.5586 Y2.3709
G0 Z-0.615
G1 Z-0.74
G1 X1.8336
G1 Y2.3459
G1 X1.5586
G1 Y2.3709
G1 X1.5336
G1 Y2.3959
G1 X1.8586
G1 Y2.3209
G1 X1.5336
G1 Y2.3709
G1 X1.4836
G1 Y2.4459
G1 X1.9086
G1 Y2.2709
G1 X1.4836
G1 Y2.3709
G1 X1.4336
G1 Y2.4959
G1 X1.9586
G1 Y2.2209
G1 X1.4336
G1 Y2.3709
G1 X1.3836
G1 Y2.5459
G1 X2.0086
G1 Y2.1709
G1 X1.3836
G1 Y2.3709
G1 X1.3336
G1 Y2.5959
G1 X2.0586
G1 Y2.1209
G1 X1.3336
G1 Y2.3709
G1 X1.2836
G1 Y2.6459
G1 X2.1086
G1 Y2.0709
G1 X1.2836
G1 Y2.3709
G1 X1.2336
G1 Y2.6959
G1 X2.1586
G1 Y2.0209
G1 X1.2336
G1 Y2.3709
G1 X1.1836
G1 Y2.7459
G1 X2.2086
G1 Y1.9709
G1 X1.1836
G1 Y2.3709
G1 X1.1336
G1 Y2.7959
G1 X2.2586
G1 Y1.9209
G1 X1.1336
G1 Y2.3709
G1 X1.0836
G1 Y2.8459
G1 X2.3086
G1 Y1.8709
G1 X1.0836
G1 Y2.3709
G1 X1.0336
G1 Y2.8959
G1 X2.3586
G1 Y1.8209
G1 X1.0336
G1 Y2.3709
G0 Z0.0
M5
M30
